<?xml version="1.0" encoding="UTF-8"?>
<map version="1.10" tiledversion="1.11.2" orientation="orthogonal" renderorder="right-down" compressionlevel="0" width="48" height="24" tilewidth="16" tileheight="16" infinite="0" nextlayerid="32" nextobjectid="161">
 <properties>
  <property name="AmbientLight" value="120 140 30"/>
  <property name="Music" value="DN.ValTheme"/>
  <property name="NPCWarp" value="19 20 EastScarp_Underforge 24 10"/>
  <property name="Warp" value="11 23 EastScarp_Village 94 93"/>
 </properties>
 <tileset firstgid="1" name="Paths" tilewidth="16" tileheight="16" tilecount="36" columns="4">
  <image source="paths.png" width="64" height="144"/>
 </tileset>
 <tileset firstgid="37" name="townInterior" tilewidth="16" tileheight="16" tilecount="2176" columns="32">
  <image source="townInterior.png" width="512" height="1088"/>
 </tileset>
 <tileset firstgid="2213" name="DN.SnS_FinalMixInteriors" tilewidth="16" tileheight="16" tilecount="3600" columns="18">
  <image source="DN.SnS_FinalMixInteriors.png" width="288" height="3200"/>
  <tile id="1065">
   <animation>
    <frame tileid="1065" duration="1000"/>
    <frame tileid="1071" duration="1000"/>
   </animation>
  </tile>
  <tile id="1066">
   <animation>
    <frame tileid="1066" duration="1000"/>
    <frame tileid="1072" duration="1000"/>
   </animation>
  </tile>
  <tile id="1083">
   <animation>
    <frame tileid="1083" duration="1000"/>
    <frame tileid="1089" duration="1000"/>
   </animation>
  </tile>
  <tile id="1084">
   <animation>
    <frame tileid="1084" duration="1000"/>
    <frame tileid="1090" duration="1000"/>
   </animation>
  </tile>
  <tile id="1101">
   <animation>
    <frame tileid="1101" duration="1000"/>
    <frame tileid="1107" duration="1000"/>
   </animation>
  </tile>
  <tile id="1102">
   <animation>
    <frame tileid="1102" duration="1000"/>
    <frame tileid="1108" duration="1000"/>
   </animation>
  </tile>
  <tile id="1112">
   <animation>
    <frame tileid="1112" duration="1000"/>
    <frame tileid="1166" duration="1000"/>
   </animation>
  </tile>
  <tile id="1113">
   <animation>
    <frame tileid="1113" duration="1000"/>
    <frame tileid="1167" duration="1000"/>
   </animation>
  </tile>
  <tile id="1117">
   <animation>
    <frame tileid="1117" duration="1000"/>
    <frame tileid="1123" duration="1000"/>
   </animation>
  </tile>
  <tile id="1119">
   <animation>
    <frame tileid="1119" duration="1000"/>
    <frame tileid="1125" duration="1000"/>
   </animation>
  </tile>
  <tile id="1120">
   <animation>
    <frame tileid="1120" duration="1000"/>
    <frame tileid="1126" duration="1000"/>
   </animation>
  </tile>
  <tile id="1130">
   <animation>
    <frame tileid="1130" duration="1000"/>
    <frame tileid="1184" duration="1000"/>
   </animation>
  </tile>
  <tile id="1131">
   <animation>
    <frame tileid="1131" duration="1000"/>
    <frame tileid="1185" duration="1000"/>
   </animation>
  </tile>
  <tile id="1134">
   <animation>
    <frame tileid="1134" duration="1000"/>
    <frame tileid="1140" duration="1000"/>
   </animation>
  </tile>
  <tile id="1135">
   <animation>
    <frame tileid="1135" duration="1000"/>
    <frame tileid="1141" duration="1000"/>
   </animation>
  </tile>
  <tile id="1136">
   <animation>
    <frame tileid="1136" duration="1000"/>
    <frame tileid="1142" duration="1000"/>
   </animation>
  </tile>
  <tile id="1137">
   <animation>
    <frame tileid="1137" duration="1000"/>
    <frame tileid="1143" duration="1000"/>
   </animation>
  </tile>
  <tile id="1138">
   <animation>
    <frame tileid="1138" duration="1000"/>
    <frame tileid="1144" duration="1000"/>
   </animation>
  </tile>
  <tile id="1139">
   <animation>
    <frame tileid="1139" duration="1000"/>
    <frame tileid="1145" duration="1000"/>
   </animation>
  </tile>
  <tile id="1152">
   <animation>
    <frame tileid="1152" duration="1000"/>
    <frame tileid="1158" duration="1000"/>
   </animation>
  </tile>
  <tile id="1153">
   <animation>
    <frame tileid="1153" duration="1000"/>
    <frame tileid="1159" duration="1000"/>
   </animation>
  </tile>
  <tile id="1154">
   <animation>
    <frame tileid="1154" duration="1000"/>
    <frame tileid="1160" duration="1000"/>
   </animation>
  </tile>
  <tile id="1155">
   <animation>
    <frame tileid="1155" duration="1000"/>
    <frame tileid="1161" duration="1000"/>
   </animation>
  </tile>
  <tile id="1156">
   <animation>
    <frame tileid="1156" duration="1000"/>
    <frame tileid="1162" duration="1000"/>
   </animation>
  </tile>
  <tile id="1157">
   <animation>
    <frame tileid="1157" duration="1000"/>
    <frame tileid="1163" duration="1000"/>
   </animation>
  </tile>
  <tile id="1170">
   <animation>
    <frame tileid="1170" duration="1000"/>
    <frame tileid="1176" duration="1000"/>
   </animation>
  </tile>
  <tile id="1171">
   <animation>
    <frame tileid="1171" duration="1000"/>
    <frame tileid="1177" duration="1000"/>
   </animation>
  </tile>
  <tile id="1172">
   <animation>
    <frame tileid="1172" duration="1000"/>
    <frame tileid="1178" duration="1000"/>
   </animation>
  </tile>
  <tile id="1173">
   <animation>
    <frame tileid="1173" duration="1000"/>
    <frame tileid="1179" duration="1000"/>
   </animation>
  </tile>
  <tile id="1174">
   <animation>
    <frame tileid="1174" duration="1000"/>
    <frame tileid="1180" duration="1000"/>
   </animation>
  </tile>
  <tile id="1175">
   <animation>
    <frame tileid="1175" duration="1000"/>
    <frame tileid="1181" duration="1000"/>
   </animation>
  </tile>
  <tile id="1188">
   <animation>
    <frame tileid="1188" duration="1000"/>
    <frame tileid="1190" duration="1000"/>
    <frame tileid="1192" duration="1000"/>
   </animation>
  </tile>
  <tile id="1189">
   <animation>
    <frame tileid="1189" duration="1000"/>
    <frame tileid="1191" duration="1000"/>
    <frame tileid="1193" duration="1000"/>
   </animation>
  </tile>
  <tile id="1194">
   <animation>
    <frame tileid="1194" duration="1000"/>
    <frame tileid="1195" duration="1000"/>
    <frame tileid="1196" duration="1000"/>
   </animation>
  </tile>
  <tile id="1197">
   <animation>
    <frame tileid="1197" duration="1000"/>
    <frame tileid="1198" duration="1000"/>
    <frame tileid="1199" duration="1000"/>
   </animation>
  </tile>
  <tile id="1206">
   <animation>
    <frame tileid="1206" duration="1000"/>
    <frame tileid="1208" duration="1000"/>
    <frame tileid="1210" duration="1000"/>
   </animation>
  </tile>
  <tile id="1207">
   <animation>
    <frame tileid="1207" duration="1000"/>
    <frame tileid="1209" duration="1000"/>
    <frame tileid="1211" duration="1000"/>
   </animation>
  </tile>
  <tile id="1212">
   <animation>
    <frame tileid="1212" duration="1000"/>
    <frame tileid="1213" duration="1000"/>
    <frame tileid="1214" duration="1000"/>
   </animation>
  </tile>
  <tile id="1215">
   <animation>
    <frame tileid="1215" duration="1000"/>
    <frame tileid="1216" duration="1000"/>
    <frame tileid="1217" duration="1000"/>
   </animation>
  </tile>
  <tile id="1224">
   <animation>
    <frame tileid="1224" duration="1000"/>
    <frame tileid="1226" duration="1000"/>
    <frame tileid="1228" duration="1000"/>
   </animation>
  </tile>
  <tile id="1225">
   <animation>
    <frame tileid="1225" duration="1000"/>
    <frame tileid="1227" duration="1000"/>
    <frame tileid="1229" duration="1000"/>
   </animation>
  </tile>
  <tile id="1230">
   <animation>
    <frame tileid="1230" duration="1000"/>
    <frame tileid="1231" duration="1000"/>
    <frame tileid="1232" duration="1000"/>
   </animation>
  </tile>
  <tile id="1233">
   <animation>
    <frame tileid="1233" duration="1000"/>
    <frame tileid="1234" duration="1000"/>
    <frame tileid="1235" duration="1000"/>
   </animation>
  </tile>
  <tile id="1242">
   <animation>
    <frame tileid="1242" duration="1000"/>
    <frame tileid="1244" duration="1000"/>
    <frame tileid="1246" duration="1000"/>
   </animation>
  </tile>
  <tile id="1243">
   <animation>
    <frame tileid="1243" duration="1000"/>
    <frame tileid="1245" duration="1000"/>
    <frame tileid="1247" duration="1000"/>
   </animation>
  </tile>
  <tile id="1248">
   <animation>
    <frame tileid="1248" duration="1000"/>
    <frame tileid="1249" duration="1000"/>
    <frame tileid="1250" duration="1000"/>
   </animation>
  </tile>
  <tile id="1260">
   <animation>
    <frame tileid="1260" duration="1000"/>
    <frame tileid="1262" duration="1000"/>
    <frame tileid="1264" duration="1000"/>
   </animation>
  </tile>
  <tile id="1261">
   <animation>
    <frame tileid="1261" duration="1000"/>
    <frame tileid="1263" duration="1000"/>
    <frame tileid="1265" duration="1000"/>
   </animation>
  </tile>
  <tile id="1266">
   <animation>
    <frame tileid="1266" duration="1000"/>
    <frame tileid="1267" duration="1000"/>
    <frame tileid="1268" duration="1000"/>
   </animation>
  </tile>
  <tile id="1287">
   <animation>
    <frame tileid="1287" duration="100"/>
    <frame tileid="1288" duration="100"/>
    <frame tileid="1289" duration="100"/>
    <frame tileid="1305" duration="100"/>
   </animation>
  </tile>
  <tile id="1324">
   <animation>
    <frame tileid="1324" duration="250"/>
    <frame tileid="1326" duration="250"/>
    <frame tileid="1328" duration="250"/>
   </animation>
  </tile>
  <tile id="1325">
   <animation>
    <frame tileid="1325" duration="250"/>
    <frame tileid="1327" duration="250"/>
    <frame tileid="1329" duration="250"/>
   </animation>
  </tile>
  <tile id="1349">
   <animation>
    <frame tileid="1349" duration="100"/>
    <frame tileid="1367" duration="100"/>
    <frame tileid="1385" duration="100"/>
    <frame tileid="1403" duration="100"/>
   </animation>
  </tile>
 </tileset>
 <tileset firstgid="5813" name="DN.SnS_mine_backup" tilewidth="16" tileheight="16" tilecount="384" columns="16">
  <image source="DN.SnS_mine_backup.png" width="256" height="384"/>
  <tile id="240">
   <properties>
    <property name="Type" value="Wood"/>
   </properties>
  </tile>
  <tile id="241">
   <properties>
    <property name="Type" value="Wood"/>
   </properties>
  </tile>
  <tile id="242">
   <properties>
    <property name="Type" value="Wood"/>
   </properties>
  </tile>
  <tile id="243">
   <animation>
    <frame tileid="243" duration="1000"/>
    <frame tileid="288" duration="1000"/>
   </animation>
  </tile>
  <tile id="244">
   <animation>
    <frame tileid="244" duration="1000"/>
    <frame tileid="289" duration="1000"/>
   </animation>
  </tile>
  <tile id="245">
   <animation>
    <frame tileid="245" duration="1000"/>
    <frame tileid="290" duration="1000"/>
   </animation>
  </tile>
  <tile id="249">
   <animation>
    <frame tileid="249" duration="1000"/>
    <frame tileid="291" duration="1000"/>
   </animation>
  </tile>
  <tile id="250">
   <animation>
    <frame tileid="250" duration="1000"/>
    <frame tileid="292" duration="1000"/>
   </animation>
  </tile>
  <tile id="251">
   <animation>
    <frame tileid="251" duration="1000"/>
    <frame tileid="293" duration="1000"/>
   </animation>
  </tile>
  <tile id="256">
   <properties>
    <property name="Type" value="Wood"/>
   </properties>
  </tile>
  <tile id="257">
   <properties>
    <property name="Type" value="Wood"/>
   </properties>
  </tile>
  <tile id="258">
   <properties>
    <property name="Type" value="Wood"/>
   </properties>
  </tile>
  <tile id="259">
   <animation>
    <frame tileid="259" duration="1000"/>
    <frame tileid="304" duration="1000"/>
   </animation>
  </tile>
  <tile id="261">
   <animation>
    <frame tileid="261" duration="1000"/>
    <frame tileid="306" duration="1000"/>
   </animation>
  </tile>
  <tile id="267">
   <animation>
    <frame tileid="267" duration="1000"/>
    <frame tileid="309" duration="1000"/>
   </animation>
  </tile>
  <tile id="272">
   <properties>
    <property name="Type" value="Wood"/>
   </properties>
  </tile>
  <tile id="273">
   <properties>
    <property name="Type" value="Wood"/>
   </properties>
  </tile>
  <tile id="274">
   <properties>
    <property name="Type" value="Wood"/>
   </properties>
  </tile>
  <tile id="278">
   <animation>
    <frame tileid="278" duration="1000"/>
    <frame tileid="294" duration="1000"/>
   </animation>
  </tile>
  <tile id="280">
   <animation>
    <frame tileid="280" duration="1000"/>
    <frame tileid="296" duration="1000"/>
   </animation>
  </tile>
 </tileset>
 <tileset firstgid="6197" name="spring_Shadows" tilewidth="16" tileheight="16" tilecount="475" columns="19">
  <image source="spring_Shadows.png" width="304" height="400"/>
 </tileset>
 <tileset firstgid="6672" name="DN.SnS_volcano_dungeon" tilewidth="16" tileheight="16" tilecount="576" columns="16">
  <image source="DN.SnS_volcano_dungeon.png" width="256" height="576"/>
  <tile id="320">
   <animation>
    <frame tileid="320" duration="100"/>
    <frame tileid="321" duration="100"/>
    <frame tileid="322" duration="100"/>
    <frame tileid="323" duration="100"/>
    <frame tileid="324" duration="100"/>
    <frame tileid="325" duration="100"/>
    <frame tileid="326" duration="100"/>
    <frame tileid="327" duration="100"/>
    <frame tileid="328" duration="100"/>
    <frame tileid="329" duration="100"/>
    <frame tileid="336" duration="100"/>
    <frame tileid="337" duration="100"/>
    <frame tileid="338" duration="100"/>
    <frame tileid="339" duration="100"/>
    <frame tileid="340" duration="100"/>
    <frame tileid="341" duration="100"/>
    <frame tileid="342" duration="100"/>
    <frame tileid="343" duration="100"/>
    <frame tileid="344" duration="100"/>
    <frame tileid="345" duration="100"/>
   </animation>
  </tile>
 </tileset>
 <tileset firstgid="7248" name="spring_outdoorsTileSheet" tilewidth="16" tileheight="16" tilecount="1975" columns="25">
  <image source="spring_outdoorsTileSheet.png" width="400" height="1264"/>
  <tile id="1227">
   <properties>
    <property name="Water" value="T"/>
   </properties>
  </tile>
  <tile id="1228">
   <properties>
    <property name="Water" value="T"/>
   </properties>
  </tile>
  <tile id="1229">
   <properties>
    <property name="Water" value="T"/>
   </properties>
  </tile>
  <tile id="1230">
   <properties>
    <property name="Water" value="T"/>
   </properties>
  </tile>
  <tile id="1231">
   <properties>
    <property name="Water" value="T"/>
   </properties>
  </tile>
  <tile id="1246">
   <properties>
    <property name="Water" value="T"/>
   </properties>
  </tile>
  <tile id="1247">
   <properties>
    <property name="Water" value="T"/>
   </properties>
  </tile>
  <tile id="1248">
   <properties>
    <property name="Water" value="T"/>
   </properties>
  </tile>
  <tile id="1249">
   <properties>
    <property name="Water" value="T"/>
   </properties>
  </tile>
  <tile id="1252">
   <properties>
    <property name="Water" value="T"/>
   </properties>
  </tile>
  <tile id="1253">
   <properties>
    <property name="Water" value="T"/>
   </properties>
  </tile>
  <tile id="1254">
   <properties>
    <property name="Water" value="T"/>
   </properties>
  </tile>
  <tile id="1255">
   <properties>
    <property name="Water" value="T"/>
   </properties>
  </tile>
  <tile id="1256">
   <properties>
    <property name="Water" value="T"/>
   </properties>
  </tile>
  <tile id="1271">
   <properties>
    <property name="Water" value="T"/>
   </properties>
  </tile>
  <tile id="1272">
   <properties>
    <property name="Water" value="T"/>
   </properties>
  </tile>
  <tile id="1273">
   <properties>
    <property name="Water" value="T"/>
   </properties>
  </tile>
  <tile id="1274">
   <properties>
    <property name="Water" value="T"/>
   </properties>
  </tile>
  <tile id="1277">
   <properties>
    <property name="Water" value="T"/>
   </properties>
  </tile>
  <tile id="1278">
   <properties>
    <property name="Water" value="T"/>
   </properties>
  </tile>
  <tile id="1279">
   <properties>
    <property name="Water" value="T"/>
   </properties>
  </tile>
  <tile id="1280">
   <properties>
    <property name="Water" value="T"/>
   </properties>
  </tile>
  <tile id="1281">
   <properties>
    <property name="Water" value="T"/>
   </properties>
  </tile>
  <tile id="1297">
   <properties>
    <property name="Water" value="T"/>
   </properties>
  </tile>
  <tile id="1298">
   <properties>
    <property name="Water" value="T"/>
   </properties>
  </tile>
  <tile id="1299">
   <properties>
    <property name="Water" value="T"/>
   </properties>
  </tile>
  <tile id="1302">
   <properties>
    <property name="Water" value="T"/>
   </properties>
  </tile>
  <tile id="1303">
   <properties>
    <property name="Water" value="T"/>
   </properties>
  </tile>
  <tile id="1304">
   <properties>
    <property name="Water" value="T"/>
   </properties>
  </tile>
  <tile id="1305">
   <properties>
    <property name="Water" value="T"/>
   </properties>
  </tile>
  <tile id="1306">
   <properties>
    <property name="Water" value="T"/>
   </properties>
  </tile>
  <tile id="1322">
   <properties>
    <property name="Water" value="T"/>
   </properties>
  </tile>
  <tile id="1323">
   <properties>
    <property name="Water" value="T"/>
   </properties>
  </tile>
  <tile id="1324">
   <properties>
    <property name="Water" value="T"/>
   </properties>
  </tile>
 </tileset>
 <tileset firstgid="9223" name="spring_beach" tilewidth="16" tileheight="16" tilecount="527" columns="17">
  <image source="spring_beach.png" width="272" height="496"/>
  <tile id="280">
   <properties>
    <property name="Passable" value="T"/>
   </properties>
  </tile>
  <tile id="281">
   <properties>
    <property name="Passable" value="T"/>
   </properties>
  </tile>
  <tile id="282">
   <properties>
    <property name="Passable" value="T"/>
   </properties>
  </tile>
  <tile id="297">
   <properties>
    <property name="Passable" value="T"/>
   </properties>
  </tile>
  <tile id="298">
   <properties>
    <property name="Passable" value="T"/>
   </properties>
  </tile>
  <tile id="299">
   <properties>
    <property name="Passable" value="T"/>
   </properties>
  </tile>
  <tile id="300">
   <properties>
    <property name="Passable" value="T"/>
   </properties>
  </tile>
  <tile id="301">
   <properties>
    <property name="Passable" value="T"/>
   </properties>
  </tile>
  <tile id="302">
   <properties>
    <property name="Passable" value="T"/>
   </properties>
  </tile>
  <tile id="314">
   <properties>
    <property name="Passable" value="T"/>
   </properties>
  </tile>
  <tile id="315">
   <properties>
    <property name="Passable" value="T"/>
   </properties>
  </tile>
  <tile id="316">
   <properties>
    <property name="Passable" value="T"/>
   </properties>
  </tile>
  <tile id="331">
   <properties>
    <property name="Passable" value="T"/>
   </properties>
  </tile>
  <tile id="332">
   <properties>
    <property name="Passable" value="T"/>
   </properties>
  </tile>
  <tile id="333">
   <properties>
    <property name="Passable" value="T"/>
   </properties>
  </tile>
  <tile id="419">
   <properties>
    <property name="Passable" value="T"/>
   </properties>
  </tile>
  <tile id="420">
   <properties>
    <property name="Passable" value="T"/>
   </properties>
  </tile>
  <tile id="421">
   <properties>
    <property name="Passable" value="T"/>
   </properties>
  </tile>
  <tile id="436">
   <properties>
    <property name="Passable" value="T"/>
   </properties>
  </tile>
  <tile id="437">
   <properties>
    <property name="Passable" value="T"/>
   </properties>
  </tile>
  <tile id="438">
   <properties>
    <property name="Passable" value="T"/>
   </properties>
  </tile>
  <tile id="453">
   <properties>
    <property name="Passable" value="T"/>
   </properties>
  </tile>
  <tile id="454">
   <properties>
    <property name="Passable" value="T"/>
   </properties>
  </tile>
  <tile id="455">
   <properties>
    <property name="Passable" value="T"/>
   </properties>
  </tile>
  <tile id="470">
   <properties>
    <property name="Passable" value="T"/>
   </properties>
  </tile>
  <tile id="471">
   <properties>
    <property name="Passable" value="T"/>
   </properties>
  </tile>
  <tile id="472">
   <properties>
    <property name="Passable" value="T"/>
   </properties>
  </tile>
  <tile id="487">
   <properties>
    <property name="Passable" value="T"/>
   </properties>
  </tile>
  <tile id="488">
   <properties>
    <property name="Passable" value="T"/>
   </properties>
  </tile>
  <tile id="489">
   <properties>
    <property name="Passable" value="T"/>
   </properties>
  </tile>
  <tile id="491">
   <properties>
    <property name="Passable" value="T"/>
   </properties>
  </tile>
  <tile id="492">
   <properties>
    <property name="Passable" value="T"/>
   </properties>
  </tile>
  <tile id="505">
   <properties>
    <property name="Passable" value="T"/>
   </properties>
  </tile>
  <tile id="506">
   <properties>
    <property name="Passable" value="T"/>
   </properties>
  </tile>
  <tile id="508">
   <properties>
    <property name="Passable" value="T"/>
   </properties>
  </tile>
  <tile id="509">
   <properties>
    <property name="Passable" value="T"/>
   </properties>
  </tile>
  <tile id="520">
   <properties>
    <property name="Passable" value="T"/>
   </properties>
  </tile>
  <tile id="524">
   <properties>
    <property name="Passable" value="T"/>
   </properties>
  </tile>
  <tile id="525">
   <properties>
    <property name="Passable" value="T"/>
   </properties>
  </tile>
  <tile id="526">
   <properties>
    <property name="Passable" value="T"/>
   </properties>
  </tile>
 </tileset>
 <tileset firstgid="9750" name="spring_Waterfalls" tilewidth="16" tileheight="16" tilecount="900" columns="36">
  <image source="spring_Waterfalls.png" width="576" height="400"/>
  <tile id="144">
   <animation>
    <frame tileid="144" duration="100"/>
    <frame tileid="150" duration="100"/>
    <frame tileid="156" duration="100"/>
    <frame tileid="162" duration="100"/>
    <frame tileid="168" duration="100"/>
    <frame tileid="174" duration="100"/>
    <frame tileid="396" duration="100"/>
    <frame tileid="402" duration="100"/>
    <frame tileid="408" duration="100"/>
    <frame tileid="414" duration="100"/>
    <frame tileid="420" duration="100"/>
    <frame tileid="426" duration="100"/>
    <frame tileid="648" duration="100"/>
    <frame tileid="654" duration="100"/>
    <frame tileid="660" duration="100"/>
    <frame tileid="666" duration="100"/>
    <frame tileid="672" duration="100"/>
   </animation>
  </tile>
  <tile id="145">
   <animation>
    <frame tileid="145" duration="100"/>
    <frame tileid="151" duration="100"/>
    <frame tileid="157" duration="100"/>
    <frame tileid="163" duration="100"/>
    <frame tileid="169" duration="100"/>
    <frame tileid="175" duration="100"/>
    <frame tileid="397" duration="100"/>
    <frame tileid="403" duration="100"/>
    <frame tileid="409" duration="100"/>
    <frame tileid="415" duration="100"/>
    <frame tileid="421" duration="100"/>
    <frame tileid="427" duration="100"/>
    <frame tileid="649" duration="100"/>
    <frame tileid="655" duration="100"/>
    <frame tileid="661" duration="100"/>
    <frame tileid="667" duration="100"/>
    <frame tileid="673" duration="100"/>
   </animation>
  </tile>
  <tile id="146">
   <animation>
    <frame tileid="146" duration="100"/>
    <frame tileid="152" duration="100"/>
    <frame tileid="158" duration="100"/>
    <frame tileid="164" duration="100"/>
    <frame tileid="170" duration="100"/>
    <frame tileid="176" duration="100"/>
    <frame tileid="398" duration="100"/>
    <frame tileid="404" duration="100"/>
    <frame tileid="410" duration="100"/>
    <frame tileid="416" duration="100"/>
    <frame tileid="422" duration="100"/>
    <frame tileid="428" duration="100"/>
    <frame tileid="650" duration="100"/>
    <frame tileid="656" duration="100"/>
    <frame tileid="662" duration="100"/>
    <frame tileid="668" duration="100"/>
    <frame tileid="674" duration="100"/>
   </animation>
  </tile>
  <tile id="147">
   <animation>
    <frame tileid="147" duration="100"/>
    <frame tileid="153" duration="100"/>
    <frame tileid="159" duration="100"/>
    <frame tileid="165" duration="100"/>
    <frame tileid="171" duration="100"/>
    <frame tileid="177" duration="100"/>
    <frame tileid="399" duration="100"/>
    <frame tileid="405" duration="100"/>
    <frame tileid="411" duration="100"/>
    <frame tileid="417" duration="100"/>
    <frame tileid="423" duration="100"/>
    <frame tileid="429" duration="100"/>
    <frame tileid="651" duration="100"/>
    <frame tileid="657" duration="100"/>
    <frame tileid="663" duration="100"/>
    <frame tileid="669" duration="100"/>
    <frame tileid="675" duration="100"/>
   </animation>
  </tile>
  <tile id="148">
   <animation>
    <frame tileid="148" duration="100"/>
    <frame tileid="154" duration="100"/>
    <frame tileid="160" duration="100"/>
    <frame tileid="166" duration="100"/>
    <frame tileid="172" duration="100"/>
    <frame tileid="178" duration="100"/>
    <frame tileid="400" duration="100"/>
    <frame tileid="406" duration="100"/>
    <frame tileid="412" duration="100"/>
    <frame tileid="418" duration="100"/>
    <frame tileid="424" duration="100"/>
    <frame tileid="430" duration="100"/>
    <frame tileid="652" duration="100"/>
    <frame tileid="658" duration="100"/>
    <frame tileid="664" duration="100"/>
    <frame tileid="670" duration="100"/>
    <frame tileid="676" duration="100"/>
   </animation>
  </tile>
  <tile id="149">
   <animation>
    <frame tileid="149" duration="100"/>
    <frame tileid="155" duration="100"/>
    <frame tileid="161" duration="100"/>
    <frame tileid="167" duration="100"/>
    <frame tileid="173" duration="100"/>
    <frame tileid="179" duration="100"/>
    <frame tileid="401" duration="100"/>
    <frame tileid="407" duration="100"/>
    <frame tileid="413" duration="100"/>
    <frame tileid="419" duration="100"/>
    <frame tileid="425" duration="100"/>
    <frame tileid="431" duration="100"/>
    <frame tileid="653" duration="100"/>
    <frame tileid="659" duration="100"/>
    <frame tileid="665" duration="100"/>
    <frame tileid="671" duration="100"/>
    <frame tileid="677" duration="100"/>
   </animation>
  </tile>
  <tile id="180">
   <animation>
    <frame tileid="180" duration="100"/>
    <frame tileid="186" duration="100"/>
    <frame tileid="192" duration="100"/>
    <frame tileid="198" duration="100"/>
    <frame tileid="204" duration="100"/>
    <frame tileid="210" duration="100"/>
    <frame tileid="432" duration="100"/>
    <frame tileid="438" duration="100"/>
    <frame tileid="444" duration="100"/>
    <frame tileid="450" duration="100"/>
    <frame tileid="456" duration="100"/>
    <frame tileid="462" duration="100"/>
    <frame tileid="684" duration="100"/>
    <frame tileid="690" duration="100"/>
    <frame tileid="696" duration="100"/>
    <frame tileid="702" duration="100"/>
    <frame tileid="708" duration="100"/>
   </animation>
  </tile>
  <tile id="181">
   <animation>
    <frame tileid="181" duration="100"/>
    <frame tileid="187" duration="100"/>
    <frame tileid="193" duration="100"/>
    <frame tileid="199" duration="100"/>
    <frame tileid="205" duration="100"/>
    <frame tileid="211" duration="100"/>
    <frame tileid="433" duration="100"/>
    <frame tileid="439" duration="100"/>
    <frame tileid="445" duration="100"/>
    <frame tileid="451" duration="100"/>
    <frame tileid="457" duration="100"/>
    <frame tileid="463" duration="100"/>
    <frame tileid="685" duration="100"/>
    <frame tileid="691" duration="100"/>
    <frame tileid="697" duration="100"/>
    <frame tileid="703" duration="100"/>
    <frame tileid="709" duration="100"/>
   </animation>
  </tile>
  <tile id="182">
   <animation>
    <frame tileid="182" duration="100"/>
    <frame tileid="188" duration="100"/>
    <frame tileid="194" duration="100"/>
    <frame tileid="200" duration="100"/>
    <frame tileid="206" duration="100"/>
    <frame tileid="212" duration="100"/>
    <frame tileid="434" duration="100"/>
    <frame tileid="440" duration="100"/>
    <frame tileid="446" duration="100"/>
    <frame tileid="452" duration="100"/>
    <frame tileid="458" duration="100"/>
    <frame tileid="464" duration="100"/>
    <frame tileid="686" duration="100"/>
    <frame tileid="692" duration="100"/>
    <frame tileid="698" duration="100"/>
    <frame tileid="704" duration="100"/>
    <frame tileid="710" duration="100"/>
   </animation>
  </tile>
  <tile id="183">
   <animation>
    <frame tileid="183" duration="100"/>
    <frame tileid="189" duration="100"/>
    <frame tileid="195" duration="100"/>
    <frame tileid="201" duration="100"/>
    <frame tileid="207" duration="100"/>
    <frame tileid="213" duration="100"/>
    <frame tileid="435" duration="100"/>
    <frame tileid="441" duration="100"/>
    <frame tileid="447" duration="100"/>
    <frame tileid="453" duration="100"/>
    <frame tileid="459" duration="100"/>
    <frame tileid="465" duration="100"/>
    <frame tileid="687" duration="100"/>
    <frame tileid="693" duration="100"/>
    <frame tileid="699" duration="100"/>
    <frame tileid="705" duration="100"/>
    <frame tileid="711" duration="100"/>
   </animation>
  </tile>
  <tile id="184">
   <animation>
    <frame tileid="184" duration="100"/>
    <frame tileid="190" duration="100"/>
    <frame tileid="196" duration="100"/>
    <frame tileid="202" duration="100"/>
    <frame tileid="208" duration="100"/>
    <frame tileid="214" duration="100"/>
    <frame tileid="436" duration="100"/>
    <frame tileid="442" duration="100"/>
    <frame tileid="448" duration="100"/>
    <frame tileid="454" duration="100"/>
    <frame tileid="460" duration="100"/>
    <frame tileid="466" duration="100"/>
    <frame tileid="688" duration="100"/>
    <frame tileid="694" duration="100"/>
    <frame tileid="700" duration="100"/>
    <frame tileid="706" duration="100"/>
    <frame tileid="712" duration="100"/>
   </animation>
  </tile>
  <tile id="185">
   <animation>
    <frame tileid="185" duration="100"/>
    <frame tileid="191" duration="100"/>
    <frame tileid="197" duration="100"/>
    <frame tileid="203" duration="100"/>
    <frame tileid="209" duration="100"/>
    <frame tileid="215" duration="100"/>
    <frame tileid="437" duration="100"/>
    <frame tileid="443" duration="100"/>
    <frame tileid="449" duration="100"/>
    <frame tileid="455" duration="100"/>
    <frame tileid="461" duration="100"/>
    <frame tileid="467" duration="100"/>
    <frame tileid="689" duration="100"/>
    <frame tileid="695" duration="100"/>
    <frame tileid="701" duration="100"/>
    <frame tileid="707" duration="100"/>
    <frame tileid="713" duration="100"/>
   </animation>
  </tile>
  <tile id="216">
   <animation>
    <frame tileid="216" duration="100"/>
    <frame tileid="222" duration="100"/>
    <frame tileid="228" duration="100"/>
    <frame tileid="234" duration="100"/>
    <frame tileid="240" duration="100"/>
    <frame tileid="246" duration="100"/>
    <frame tileid="468" duration="100"/>
    <frame tileid="474" duration="100"/>
    <frame tileid="480" duration="100"/>
    <frame tileid="486" duration="100"/>
    <frame tileid="492" duration="100"/>
    <frame tileid="498" duration="100"/>
    <frame tileid="720" duration="100"/>
    <frame tileid="726" duration="100"/>
    <frame tileid="732" duration="100"/>
    <frame tileid="738" duration="100"/>
    <frame tileid="744" duration="100"/>
   </animation>
  </tile>
  <tile id="217">
   <animation>
    <frame tileid="217" duration="100"/>
    <frame tileid="223" duration="100"/>
    <frame tileid="229" duration="100"/>
    <frame tileid="235" duration="100"/>
    <frame tileid="241" duration="100"/>
    <frame tileid="247" duration="100"/>
    <frame tileid="469" duration="100"/>
    <frame tileid="475" duration="100"/>
    <frame tileid="481" duration="100"/>
    <frame tileid="487" duration="100"/>
    <frame tileid="493" duration="100"/>
    <frame tileid="499" duration="100"/>
    <frame tileid="721" duration="100"/>
    <frame tileid="727" duration="100"/>
    <frame tileid="733" duration="100"/>
    <frame tileid="739" duration="100"/>
    <frame tileid="745" duration="100"/>
   </animation>
  </tile>
  <tile id="218">
   <animation>
    <frame tileid="218" duration="100"/>
    <frame tileid="224" duration="100"/>
    <frame tileid="230" duration="100"/>
    <frame tileid="236" duration="100"/>
    <frame tileid="242" duration="100"/>
    <frame tileid="248" duration="100"/>
    <frame tileid="470" duration="100"/>
    <frame tileid="476" duration="100"/>
    <frame tileid="482" duration="100"/>
    <frame tileid="488" duration="100"/>
    <frame tileid="494" duration="100"/>
    <frame tileid="500" duration="100"/>
    <frame tileid="722" duration="100"/>
    <frame tileid="728" duration="100"/>
    <frame tileid="734" duration="100"/>
    <frame tileid="740" duration="100"/>
    <frame tileid="746" duration="100"/>
   </animation>
  </tile>
  <tile id="219">
   <animation>
    <frame tileid="219" duration="100"/>
    <frame tileid="225" duration="100"/>
    <frame tileid="231" duration="100"/>
    <frame tileid="237" duration="100"/>
    <frame tileid="243" duration="100"/>
    <frame tileid="249" duration="100"/>
    <frame tileid="471" duration="100"/>
    <frame tileid="477" duration="100"/>
    <frame tileid="483" duration="100"/>
    <frame tileid="489" duration="100"/>
    <frame tileid="495" duration="100"/>
    <frame tileid="501" duration="100"/>
    <frame tileid="723" duration="100"/>
    <frame tileid="729" duration="100"/>
    <frame tileid="735" duration="100"/>
    <frame tileid="741" duration="100"/>
    <frame tileid="747" duration="100"/>
   </animation>
  </tile>
  <tile id="220">
   <animation>
    <frame tileid="220" duration="100"/>
    <frame tileid="226" duration="100"/>
    <frame tileid="232" duration="100"/>
    <frame tileid="238" duration="100"/>
    <frame tileid="244" duration="100"/>
    <frame tileid="250" duration="100"/>
    <frame tileid="472" duration="100"/>
    <frame tileid="478" duration="100"/>
    <frame tileid="484" duration="100"/>
    <frame tileid="490" duration="100"/>
    <frame tileid="496" duration="100"/>
    <frame tileid="502" duration="100"/>
    <frame tileid="724" duration="100"/>
    <frame tileid="730" duration="100"/>
    <frame tileid="736" duration="100"/>
    <frame tileid="742" duration="100"/>
    <frame tileid="748" duration="100"/>
   </animation>
  </tile>
  <tile id="221">
   <animation>
    <frame tileid="221" duration="100"/>
    <frame tileid="227" duration="100"/>
    <frame tileid="233" duration="100"/>
    <frame tileid="239" duration="100"/>
    <frame tileid="245" duration="100"/>
    <frame tileid="251" duration="100"/>
    <frame tileid="473" duration="100"/>
    <frame tileid="479" duration="100"/>
    <frame tileid="485" duration="100"/>
    <frame tileid="491" duration="100"/>
    <frame tileid="497" duration="100"/>
    <frame tileid="503" duration="100"/>
    <frame tileid="725" duration="100"/>
    <frame tileid="731" duration="100"/>
    <frame tileid="737" duration="100"/>
    <frame tileid="743" duration="100"/>
    <frame tileid="749" duration="100"/>
   </animation>
  </tile>
  <tile id="252">
   <animation>
    <frame tileid="252" duration="100"/>
    <frame tileid="258" duration="100"/>
    <frame tileid="264" duration="100"/>
    <frame tileid="270" duration="100"/>
    <frame tileid="276" duration="100"/>
    <frame tileid="282" duration="100"/>
    <frame tileid="504" duration="100"/>
    <frame tileid="510" duration="100"/>
    <frame tileid="516" duration="100"/>
    <frame tileid="522" duration="100"/>
    <frame tileid="528" duration="100"/>
    <frame tileid="534" duration="100"/>
    <frame tileid="756" duration="100"/>
    <frame tileid="762" duration="100"/>
    <frame tileid="768" duration="100"/>
    <frame tileid="774" duration="100"/>
    <frame tileid="780" duration="100"/>
   </animation>
  </tile>
  <tile id="253">
   <animation>
    <frame tileid="253" duration="100"/>
    <frame tileid="259" duration="100"/>
    <frame tileid="265" duration="100"/>
    <frame tileid="271" duration="100"/>
    <frame tileid="277" duration="100"/>
    <frame tileid="283" duration="100"/>
    <frame tileid="505" duration="100"/>
    <frame tileid="511" duration="100"/>
    <frame tileid="517" duration="100"/>
    <frame tileid="523" duration="100"/>
    <frame tileid="529" duration="100"/>
    <frame tileid="535" duration="100"/>
    <frame tileid="757" duration="100"/>
    <frame tileid="763" duration="100"/>
    <frame tileid="769" duration="100"/>
    <frame tileid="775" duration="100"/>
    <frame tileid="781" duration="100"/>
   </animation>
  </tile>
  <tile id="254">
   <animation>
    <frame tileid="254" duration="100"/>
    <frame tileid="260" duration="100"/>
    <frame tileid="266" duration="100"/>
    <frame tileid="272" duration="100"/>
    <frame tileid="278" duration="100"/>
    <frame tileid="284" duration="100"/>
    <frame tileid="506" duration="100"/>
    <frame tileid="512" duration="100"/>
    <frame tileid="518" duration="100"/>
    <frame tileid="524" duration="100"/>
    <frame tileid="530" duration="100"/>
    <frame tileid="536" duration="100"/>
    <frame tileid="758" duration="100"/>
    <frame tileid="764" duration="100"/>
    <frame tileid="770" duration="100"/>
    <frame tileid="776" duration="100"/>
    <frame tileid="782" duration="100"/>
   </animation>
  </tile>
  <tile id="255">
   <animation>
    <frame tileid="255" duration="100"/>
    <frame tileid="261" duration="100"/>
    <frame tileid="267" duration="100"/>
    <frame tileid="273" duration="100"/>
    <frame tileid="279" duration="100"/>
    <frame tileid="285" duration="100"/>
    <frame tileid="507" duration="100"/>
    <frame tileid="513" duration="100"/>
    <frame tileid="519" duration="100"/>
    <frame tileid="525" duration="100"/>
    <frame tileid="531" duration="100"/>
    <frame tileid="537" duration="100"/>
    <frame tileid="759" duration="100"/>
    <frame tileid="765" duration="100"/>
    <frame tileid="771" duration="100"/>
    <frame tileid="777" duration="100"/>
    <frame tileid="783" duration="100"/>
   </animation>
  </tile>
  <tile id="256">
   <animation>
    <frame tileid="256" duration="100"/>
    <frame tileid="262" duration="100"/>
    <frame tileid="268" duration="100"/>
    <frame tileid="274" duration="100"/>
    <frame tileid="280" duration="100"/>
    <frame tileid="286" duration="100"/>
    <frame tileid="508" duration="100"/>
    <frame tileid="514" duration="100"/>
    <frame tileid="520" duration="100"/>
    <frame tileid="526" duration="100"/>
    <frame tileid="532" duration="100"/>
    <frame tileid="538" duration="100"/>
    <frame tileid="760" duration="100"/>
    <frame tileid="766" duration="100"/>
    <frame tileid="772" duration="100"/>
    <frame tileid="778" duration="100"/>
    <frame tileid="784" duration="100"/>
   </animation>
  </tile>
  <tile id="257">
   <animation>
    <frame tileid="257" duration="100"/>
    <frame tileid="263" duration="100"/>
    <frame tileid="269" duration="100"/>
    <frame tileid="275" duration="100"/>
    <frame tileid="281" duration="100"/>
    <frame tileid="287" duration="100"/>
    <frame tileid="509" duration="100"/>
    <frame tileid="515" duration="100"/>
    <frame tileid="521" duration="100"/>
    <frame tileid="527" duration="100"/>
    <frame tileid="533" duration="100"/>
    <frame tileid="539" duration="100"/>
    <frame tileid="761" duration="100"/>
    <frame tileid="767" duration="100"/>
    <frame tileid="773" duration="100"/>
    <frame tileid="779" duration="100"/>
    <frame tileid="785" duration="100"/>
   </animation>
  </tile>
  <tile id="288">
   <animation>
    <frame tileid="288" duration="100"/>
    <frame tileid="294" duration="100"/>
    <frame tileid="300" duration="100"/>
    <frame tileid="306" duration="100"/>
    <frame tileid="312" duration="100"/>
    <frame tileid="318" duration="100"/>
    <frame tileid="540" duration="100"/>
    <frame tileid="546" duration="100"/>
    <frame tileid="552" duration="100"/>
    <frame tileid="558" duration="100"/>
    <frame tileid="564" duration="100"/>
    <frame tileid="570" duration="100"/>
    <frame tileid="792" duration="100"/>
    <frame tileid="798" duration="100"/>
    <frame tileid="804" duration="100"/>
    <frame tileid="810" duration="100"/>
    <frame tileid="816" duration="100"/>
   </animation>
  </tile>
  <tile id="289">
   <animation>
    <frame tileid="289" duration="100"/>
    <frame tileid="295" duration="100"/>
    <frame tileid="301" duration="100"/>
    <frame tileid="307" duration="100"/>
    <frame tileid="313" duration="100"/>
    <frame tileid="319" duration="100"/>
    <frame tileid="541" duration="100"/>
    <frame tileid="547" duration="100"/>
    <frame tileid="553" duration="100"/>
    <frame tileid="559" duration="100"/>
    <frame tileid="565" duration="100"/>
    <frame tileid="571" duration="100"/>
    <frame tileid="793" duration="100"/>
    <frame tileid="799" duration="100"/>
    <frame tileid="805" duration="100"/>
    <frame tileid="811" duration="100"/>
    <frame tileid="817" duration="100"/>
   </animation>
  </tile>
  <tile id="290">
   <animation>
    <frame tileid="290" duration="100"/>
    <frame tileid="296" duration="100"/>
    <frame tileid="302" duration="100"/>
    <frame tileid="308" duration="100"/>
    <frame tileid="314" duration="100"/>
    <frame tileid="320" duration="100"/>
    <frame tileid="542" duration="100"/>
    <frame tileid="548" duration="100"/>
    <frame tileid="554" duration="100"/>
    <frame tileid="560" duration="100"/>
    <frame tileid="566" duration="100"/>
    <frame tileid="572" duration="100"/>
    <frame tileid="794" duration="100"/>
    <frame tileid="800" duration="100"/>
    <frame tileid="806" duration="100"/>
    <frame tileid="812" duration="100"/>
    <frame tileid="818" duration="100"/>
   </animation>
  </tile>
  <tile id="291">
   <animation>
    <frame tileid="291" duration="100"/>
    <frame tileid="297" duration="100"/>
    <frame tileid="303" duration="100"/>
    <frame tileid="309" duration="100"/>
    <frame tileid="315" duration="100"/>
    <frame tileid="321" duration="100"/>
    <frame tileid="543" duration="100"/>
    <frame tileid="549" duration="100"/>
    <frame tileid="555" duration="100"/>
    <frame tileid="561" duration="100"/>
    <frame tileid="567" duration="100"/>
    <frame tileid="573" duration="100"/>
    <frame tileid="795" duration="100"/>
    <frame tileid="801" duration="100"/>
    <frame tileid="807" duration="100"/>
    <frame tileid="813" duration="100"/>
    <frame tileid="819" duration="100"/>
   </animation>
  </tile>
  <tile id="292">
   <animation>
    <frame tileid="292" duration="100"/>
    <frame tileid="298" duration="100"/>
    <frame tileid="304" duration="100"/>
    <frame tileid="310" duration="100"/>
    <frame tileid="316" duration="100"/>
    <frame tileid="322" duration="100"/>
    <frame tileid="544" duration="100"/>
    <frame tileid="550" duration="100"/>
    <frame tileid="556" duration="100"/>
    <frame tileid="562" duration="100"/>
    <frame tileid="568" duration="100"/>
    <frame tileid="574" duration="100"/>
    <frame tileid="796" duration="100"/>
    <frame tileid="802" duration="100"/>
    <frame tileid="808" duration="100"/>
    <frame tileid="814" duration="100"/>
    <frame tileid="820" duration="100"/>
   </animation>
  </tile>
  <tile id="293">
   <animation>
    <frame tileid="293" duration="100"/>
    <frame tileid="299" duration="100"/>
    <frame tileid="305" duration="100"/>
    <frame tileid="311" duration="100"/>
    <frame tileid="317" duration="100"/>
    <frame tileid="323" duration="100"/>
    <frame tileid="545" duration="100"/>
    <frame tileid="551" duration="100"/>
    <frame tileid="557" duration="100"/>
    <frame tileid="563" duration="100"/>
    <frame tileid="569" duration="100"/>
    <frame tileid="575" duration="100"/>
    <frame tileid="797" duration="100"/>
    <frame tileid="803" duration="100"/>
    <frame tileid="809" duration="100"/>
    <frame tileid="815" duration="100"/>
    <frame tileid="821" duration="100"/>
   </animation>
  </tile>
  <tile id="324">
   <animation>
    <frame tileid="324" duration="100"/>
    <frame tileid="330" duration="100"/>
    <frame tileid="336" duration="100"/>
    <frame tileid="342" duration="100"/>
    <frame tileid="348" duration="100"/>
    <frame tileid="354" duration="100"/>
    <frame tileid="576" duration="100"/>
    <frame tileid="582" duration="100"/>
    <frame tileid="588" duration="100"/>
    <frame tileid="594" duration="100"/>
    <frame tileid="600" duration="100"/>
    <frame tileid="606" duration="100"/>
    <frame tileid="828" duration="100"/>
    <frame tileid="834" duration="100"/>
    <frame tileid="840" duration="100"/>
    <frame tileid="846" duration="100"/>
    <frame tileid="852" duration="100"/>
   </animation>
  </tile>
  <tile id="325">
   <animation>
    <frame tileid="325" duration="100"/>
    <frame tileid="331" duration="100"/>
    <frame tileid="337" duration="100"/>
    <frame tileid="343" duration="100"/>
    <frame tileid="349" duration="100"/>
    <frame tileid="355" duration="100"/>
    <frame tileid="577" duration="100"/>
    <frame tileid="583" duration="100"/>
    <frame tileid="589" duration="100"/>
    <frame tileid="595" duration="100"/>
    <frame tileid="601" duration="100"/>
    <frame tileid="607" duration="100"/>
    <frame tileid="829" duration="100"/>
    <frame tileid="835" duration="100"/>
    <frame tileid="841" duration="100"/>
    <frame tileid="847" duration="100"/>
    <frame tileid="853" duration="100"/>
   </animation>
  </tile>
  <tile id="326">
   <animation>
    <frame tileid="326" duration="100"/>
    <frame tileid="332" duration="100"/>
    <frame tileid="338" duration="100"/>
    <frame tileid="344" duration="100"/>
    <frame tileid="350" duration="100"/>
    <frame tileid="356" duration="100"/>
    <frame tileid="578" duration="100"/>
    <frame tileid="584" duration="100"/>
    <frame tileid="590" duration="100"/>
    <frame tileid="596" duration="100"/>
    <frame tileid="602" duration="100"/>
    <frame tileid="608" duration="100"/>
    <frame tileid="830" duration="100"/>
    <frame tileid="836" duration="100"/>
    <frame tileid="842" duration="100"/>
    <frame tileid="848" duration="100"/>
    <frame tileid="854" duration="100"/>
   </animation>
  </tile>
  <tile id="327">
   <animation>
    <frame tileid="327" duration="100"/>
    <frame tileid="333" duration="100"/>
    <frame tileid="339" duration="100"/>
    <frame tileid="345" duration="100"/>
    <frame tileid="351" duration="100"/>
    <frame tileid="357" duration="100"/>
    <frame tileid="579" duration="100"/>
    <frame tileid="585" duration="100"/>
    <frame tileid="591" duration="100"/>
    <frame tileid="597" duration="100"/>
    <frame tileid="603" duration="100"/>
    <frame tileid="609" duration="100"/>
    <frame tileid="831" duration="100"/>
    <frame tileid="837" duration="100"/>
    <frame tileid="843" duration="100"/>
    <frame tileid="849" duration="100"/>
    <frame tileid="855" duration="100"/>
   </animation>
  </tile>
  <tile id="328">
   <animation>
    <frame tileid="328" duration="100"/>
    <frame tileid="334" duration="100"/>
    <frame tileid="340" duration="100"/>
    <frame tileid="346" duration="100"/>
    <frame tileid="352" duration="100"/>
    <frame tileid="358" duration="100"/>
    <frame tileid="580" duration="100"/>
    <frame tileid="586" duration="100"/>
    <frame tileid="592" duration="100"/>
    <frame tileid="598" duration="100"/>
    <frame tileid="604" duration="100"/>
    <frame tileid="610" duration="100"/>
    <frame tileid="832" duration="100"/>
    <frame tileid="838" duration="100"/>
    <frame tileid="844" duration="100"/>
    <frame tileid="850" duration="100"/>
    <frame tileid="856" duration="100"/>
   </animation>
  </tile>
  <tile id="329">
   <animation>
    <frame tileid="329" duration="100"/>
    <frame tileid="335" duration="100"/>
    <frame tileid="341" duration="100"/>
    <frame tileid="347" duration="100"/>
    <frame tileid="353" duration="100"/>
    <frame tileid="359" duration="100"/>
    <frame tileid="581" duration="100"/>
    <frame tileid="587" duration="100"/>
    <frame tileid="593" duration="100"/>
    <frame tileid="599" duration="100"/>
    <frame tileid="605" duration="100"/>
    <frame tileid="611" duration="100"/>
    <frame tileid="833" duration="100"/>
    <frame tileid="839" duration="100"/>
    <frame tileid="845" duration="100"/>
    <frame tileid="851" duration="100"/>
    <frame tileid="857" duration="100"/>
   </animation>
  </tile>
  <tile id="360">
   <animation>
    <frame tileid="360" duration="100"/>
    <frame tileid="366" duration="100"/>
    <frame tileid="372" duration="100"/>
    <frame tileid="378" duration="100"/>
    <frame tileid="384" duration="100"/>
    <frame tileid="390" duration="100"/>
    <frame tileid="612" duration="100"/>
    <frame tileid="618" duration="100"/>
    <frame tileid="624" duration="100"/>
    <frame tileid="630" duration="100"/>
    <frame tileid="636" duration="100"/>
    <frame tileid="642" duration="100"/>
    <frame tileid="864" duration="100"/>
    <frame tileid="870" duration="100"/>
    <frame tileid="876" duration="100"/>
    <frame tileid="882" duration="100"/>
    <frame tileid="888" duration="100"/>
   </animation>
  </tile>
  <tile id="361">
   <animation>
    <frame tileid="361" duration="100"/>
    <frame tileid="367" duration="100"/>
    <frame tileid="373" duration="100"/>
    <frame tileid="379" duration="100"/>
    <frame tileid="385" duration="100"/>
    <frame tileid="391" duration="100"/>
    <frame tileid="613" duration="100"/>
    <frame tileid="619" duration="100"/>
    <frame tileid="625" duration="100"/>
    <frame tileid="631" duration="100"/>
    <frame tileid="637" duration="100"/>
    <frame tileid="643" duration="100"/>
    <frame tileid="865" duration="100"/>
    <frame tileid="871" duration="100"/>
    <frame tileid="877" duration="100"/>
    <frame tileid="883" duration="100"/>
    <frame tileid="889" duration="100"/>
   </animation>
  </tile>
  <tile id="362">
   <animation>
    <frame tileid="362" duration="100"/>
    <frame tileid="368" duration="100"/>
    <frame tileid="374" duration="100"/>
    <frame tileid="380" duration="100"/>
    <frame tileid="386" duration="100"/>
    <frame tileid="392" duration="100"/>
    <frame tileid="614" duration="100"/>
    <frame tileid="620" duration="100"/>
    <frame tileid="626" duration="100"/>
    <frame tileid="632" duration="100"/>
    <frame tileid="638" duration="100"/>
    <frame tileid="644" duration="100"/>
    <frame tileid="866" duration="100"/>
    <frame tileid="872" duration="100"/>
    <frame tileid="878" duration="100"/>
    <frame tileid="884" duration="100"/>
    <frame tileid="890" duration="100"/>
   </animation>
  </tile>
  <tile id="363">
   <animation>
    <frame tileid="363" duration="100"/>
    <frame tileid="369" duration="100"/>
    <frame tileid="375" duration="100"/>
    <frame tileid="381" duration="100"/>
    <frame tileid="387" duration="100"/>
    <frame tileid="393" duration="100"/>
    <frame tileid="615" duration="100"/>
    <frame tileid="621" duration="100"/>
    <frame tileid="627" duration="100"/>
    <frame tileid="633" duration="100"/>
    <frame tileid="639" duration="100"/>
    <frame tileid="645" duration="100"/>
    <frame tileid="867" duration="100"/>
    <frame tileid="873" duration="100"/>
    <frame tileid="879" duration="100"/>
    <frame tileid="885" duration="100"/>
    <frame tileid="891" duration="100"/>
   </animation>
  </tile>
  <tile id="364">
   <animation>
    <frame tileid="364" duration="100"/>
    <frame tileid="370" duration="100"/>
    <frame tileid="376" duration="100"/>
    <frame tileid="382" duration="100"/>
    <frame tileid="388" duration="100"/>
    <frame tileid="394" duration="100"/>
    <frame tileid="616" duration="100"/>
    <frame tileid="622" duration="100"/>
    <frame tileid="628" duration="100"/>
    <frame tileid="634" duration="100"/>
    <frame tileid="640" duration="100"/>
    <frame tileid="646" duration="100"/>
    <frame tileid="868" duration="100"/>
    <frame tileid="874" duration="100"/>
    <frame tileid="880" duration="100"/>
    <frame tileid="886" duration="100"/>
    <frame tileid="892" duration="100"/>
   </animation>
  </tile>
  <tile id="365">
   <animation>
    <frame tileid="365" duration="100"/>
    <frame tileid="371" duration="100"/>
    <frame tileid="377" duration="100"/>
    <frame tileid="383" duration="100"/>
    <frame tileid="389" duration="100"/>
    <frame tileid="395" duration="100"/>
    <frame tileid="617" duration="100"/>
    <frame tileid="623" duration="100"/>
    <frame tileid="629" duration="100"/>
    <frame tileid="635" duration="100"/>
    <frame tileid="641" duration="100"/>
    <frame tileid="647" duration="100"/>
    <frame tileid="869" duration="100"/>
    <frame tileid="875" duration="100"/>
    <frame tileid="881" duration="100"/>
    <frame tileid="887" duration="100"/>
    <frame tileid="893" duration="100"/>
   </animation>
  </tile>
 </tileset>
 <tileset firstgid="10650" name="DN.SnS_LavaFall" tilewidth="16" tileheight="16" tilecount="720" columns="36">
  <image source="DN.SnS_LavaFall.png" width="576" height="334"/>
  <tile id="0">
   <animation>
    <frame tileid="0" duration="100"/>
    <frame tileid="6" duration="100"/>
    <frame tileid="12" duration="100"/>
    <frame tileid="18" duration="100"/>
    <frame tileid="24" duration="100"/>
    <frame tileid="30" duration="100"/>
    <frame tileid="252" duration="100"/>
    <frame tileid="258" duration="100"/>
    <frame tileid="264" duration="100"/>
    <frame tileid="270" duration="100"/>
    <frame tileid="276" duration="100"/>
    <frame tileid="282" duration="100"/>
   </animation>
  </tile>
  <tile id="1">
   <animation>
    <frame tileid="1" duration="100"/>
    <frame tileid="7" duration="100"/>
    <frame tileid="13" duration="100"/>
    <frame tileid="19" duration="100"/>
    <frame tileid="25" duration="100"/>
    <frame tileid="31" duration="100"/>
    <frame tileid="253" duration="100"/>
    <frame tileid="259" duration="100"/>
    <frame tileid="265" duration="100"/>
    <frame tileid="271" duration="100"/>
    <frame tileid="277" duration="100"/>
    <frame tileid="283" duration="100"/>
   </animation>
  </tile>
  <tile id="2">
   <animation>
    <frame tileid="2" duration="100"/>
    <frame tileid="8" duration="100"/>
    <frame tileid="14" duration="100"/>
    <frame tileid="20" duration="100"/>
    <frame tileid="26" duration="100"/>
    <frame tileid="32" duration="100"/>
    <frame tileid="254" duration="100"/>
    <frame tileid="260" duration="100"/>
    <frame tileid="266" duration="100"/>
    <frame tileid="272" duration="100"/>
    <frame tileid="278" duration="100"/>
    <frame tileid="284" duration="100"/>
   </animation>
  </tile>
  <tile id="3">
   <animation>
    <frame tileid="3" duration="100"/>
    <frame tileid="9" duration="100"/>
    <frame tileid="15" duration="100"/>
    <frame tileid="21" duration="100"/>
    <frame tileid="27" duration="100"/>
    <frame tileid="33" duration="100"/>
    <frame tileid="255" duration="100"/>
    <frame tileid="261" duration="100"/>
    <frame tileid="267" duration="100"/>
    <frame tileid="273" duration="100"/>
    <frame tileid="279" duration="100"/>
    <frame tileid="285" duration="100"/>
   </animation>
  </tile>
  <tile id="4">
   <animation>
    <frame tileid="4" duration="100"/>
    <frame tileid="10" duration="100"/>
    <frame tileid="16" duration="100"/>
    <frame tileid="22" duration="100"/>
    <frame tileid="28" duration="100"/>
    <frame tileid="34" duration="100"/>
    <frame tileid="256" duration="100"/>
    <frame tileid="262" duration="100"/>
    <frame tileid="268" duration="100"/>
    <frame tileid="274" duration="100"/>
    <frame tileid="280" duration="100"/>
    <frame tileid="286" duration="100"/>
   </animation>
  </tile>
  <tile id="5">
   <animation>
    <frame tileid="5" duration="100"/>
    <frame tileid="11" duration="100"/>
    <frame tileid="17" duration="100"/>
    <frame tileid="23" duration="100"/>
    <frame tileid="29" duration="100"/>
    <frame tileid="35" duration="100"/>
    <frame tileid="257" duration="100"/>
    <frame tileid="263" duration="100"/>
    <frame tileid="269" duration="100"/>
    <frame tileid="275" duration="100"/>
    <frame tileid="281" duration="100"/>
    <frame tileid="287" duration="100"/>
   </animation>
  </tile>
  <tile id="36">
   <animation>
    <frame tileid="36" duration="100"/>
    <frame tileid="42" duration="100"/>
    <frame tileid="48" duration="100"/>
    <frame tileid="54" duration="100"/>
    <frame tileid="60" duration="100"/>
    <frame tileid="66" duration="100"/>
    <frame tileid="288" duration="100"/>
    <frame tileid="294" duration="100"/>
    <frame tileid="300" duration="100"/>
    <frame tileid="306" duration="100"/>
    <frame tileid="312" duration="100"/>
    <frame tileid="318" duration="100"/>
   </animation>
  </tile>
  <tile id="37">
   <animation>
    <frame tileid="37" duration="100"/>
    <frame tileid="43" duration="100"/>
    <frame tileid="49" duration="100"/>
    <frame tileid="55" duration="100"/>
    <frame tileid="61" duration="100"/>
    <frame tileid="67" duration="100"/>
    <frame tileid="289" duration="100"/>
    <frame tileid="295" duration="100"/>
    <frame tileid="301" duration="100"/>
    <frame tileid="307" duration="100"/>
    <frame tileid="313" duration="100"/>
    <frame tileid="319" duration="100"/>
   </animation>
  </tile>
  <tile id="38">
   <animation>
    <frame tileid="38" duration="100"/>
    <frame tileid="44" duration="100"/>
    <frame tileid="50" duration="100"/>
    <frame tileid="56" duration="100"/>
    <frame tileid="62" duration="100"/>
    <frame tileid="68" duration="100"/>
    <frame tileid="290" duration="100"/>
    <frame tileid="296" duration="100"/>
    <frame tileid="302" duration="100"/>
    <frame tileid="308" duration="100"/>
    <frame tileid="314" duration="100"/>
    <frame tileid="320" duration="100"/>
   </animation>
  </tile>
  <tile id="39">
   <animation>
    <frame tileid="39" duration="100"/>
    <frame tileid="45" duration="100"/>
    <frame tileid="51" duration="100"/>
    <frame tileid="57" duration="100"/>
    <frame tileid="63" duration="100"/>
    <frame tileid="69" duration="100"/>
    <frame tileid="291" duration="100"/>
    <frame tileid="297" duration="100"/>
    <frame tileid="303" duration="100"/>
    <frame tileid="309" duration="100"/>
    <frame tileid="315" duration="100"/>
    <frame tileid="321" duration="100"/>
   </animation>
  </tile>
  <tile id="40">
   <animation>
    <frame tileid="40" duration="100"/>
    <frame tileid="46" duration="100"/>
    <frame tileid="52" duration="100"/>
    <frame tileid="58" duration="100"/>
    <frame tileid="64" duration="100"/>
    <frame tileid="70" duration="100"/>
    <frame tileid="292" duration="100"/>
    <frame tileid="298" duration="100"/>
    <frame tileid="304" duration="100"/>
    <frame tileid="310" duration="100"/>
    <frame tileid="316" duration="100"/>
    <frame tileid="322" duration="100"/>
   </animation>
  </tile>
  <tile id="41">
   <animation>
    <frame tileid="41" duration="100"/>
    <frame tileid="47" duration="100"/>
    <frame tileid="53" duration="100"/>
    <frame tileid="59" duration="100"/>
    <frame tileid="65" duration="100"/>
    <frame tileid="71" duration="100"/>
    <frame tileid="293" duration="100"/>
    <frame tileid="299" duration="100"/>
    <frame tileid="305" duration="100"/>
    <frame tileid="311" duration="100"/>
    <frame tileid="317" duration="100"/>
    <frame tileid="323" duration="100"/>
   </animation>
  </tile>
  <tile id="72">
   <animation>
    <frame tileid="72" duration="100"/>
    <frame tileid="78" duration="100"/>
    <frame tileid="84" duration="100"/>
    <frame tileid="90" duration="100"/>
    <frame tileid="96" duration="100"/>
    <frame tileid="102" duration="100"/>
    <frame tileid="324" duration="100"/>
    <frame tileid="330" duration="100"/>
    <frame tileid="336" duration="100"/>
    <frame tileid="342" duration="100"/>
    <frame tileid="348" duration="100"/>
    <frame tileid="354" duration="100"/>
   </animation>
  </tile>
  <tile id="73">
   <animation>
    <frame tileid="73" duration="100"/>
    <frame tileid="79" duration="100"/>
    <frame tileid="85" duration="100"/>
    <frame tileid="91" duration="100"/>
    <frame tileid="97" duration="100"/>
    <frame tileid="103" duration="100"/>
    <frame tileid="325" duration="100"/>
    <frame tileid="331" duration="100"/>
    <frame tileid="337" duration="100"/>
    <frame tileid="343" duration="100"/>
    <frame tileid="349" duration="100"/>
    <frame tileid="355" duration="100"/>
   </animation>
  </tile>
  <tile id="74">
   <animation>
    <frame tileid="74" duration="100"/>
    <frame tileid="80" duration="100"/>
    <frame tileid="86" duration="100"/>
    <frame tileid="92" duration="100"/>
    <frame tileid="98" duration="100"/>
    <frame tileid="104" duration="100"/>
    <frame tileid="326" duration="100"/>
    <frame tileid="332" duration="100"/>
    <frame tileid="338" duration="100"/>
    <frame tileid="344" duration="100"/>
    <frame tileid="350" duration="100"/>
    <frame tileid="356" duration="100"/>
   </animation>
  </tile>
  <tile id="75">
   <animation>
    <frame tileid="75" duration="100"/>
    <frame tileid="81" duration="100"/>
    <frame tileid="87" duration="100"/>
    <frame tileid="93" duration="100"/>
    <frame tileid="99" duration="100"/>
    <frame tileid="105" duration="100"/>
    <frame tileid="327" duration="100"/>
    <frame tileid="333" duration="100"/>
    <frame tileid="339" duration="100"/>
    <frame tileid="345" duration="100"/>
    <frame tileid="351" duration="100"/>
    <frame tileid="357" duration="100"/>
   </animation>
  </tile>
  <tile id="76">
   <animation>
    <frame tileid="76" duration="100"/>
    <frame tileid="82" duration="100"/>
    <frame tileid="88" duration="100"/>
    <frame tileid="94" duration="100"/>
    <frame tileid="100" duration="100"/>
    <frame tileid="106" duration="100"/>
    <frame tileid="328" duration="100"/>
    <frame tileid="334" duration="100"/>
    <frame tileid="340" duration="100"/>
    <frame tileid="346" duration="100"/>
    <frame tileid="352" duration="100"/>
    <frame tileid="358" duration="100"/>
   </animation>
  </tile>
  <tile id="77">
   <animation>
    <frame tileid="77" duration="100"/>
    <frame tileid="83" duration="100"/>
    <frame tileid="89" duration="100"/>
    <frame tileid="95" duration="100"/>
    <frame tileid="101" duration="100"/>
    <frame tileid="107" duration="100"/>
    <frame tileid="329" duration="100"/>
    <frame tileid="335" duration="100"/>
    <frame tileid="341" duration="100"/>
    <frame tileid="347" duration="100"/>
    <frame tileid="353" duration="100"/>
    <frame tileid="359" duration="100"/>
   </animation>
  </tile>
  <tile id="108">
   <animation>
    <frame tileid="108" duration="100"/>
    <frame tileid="114" duration="100"/>
    <frame tileid="120" duration="100"/>
    <frame tileid="126" duration="100"/>
    <frame tileid="132" duration="100"/>
    <frame tileid="138" duration="100"/>
    <frame tileid="360" duration="100"/>
    <frame tileid="366" duration="100"/>
    <frame tileid="372" duration="100"/>
    <frame tileid="378" duration="100"/>
    <frame tileid="384" duration="100"/>
    <frame tileid="390" duration="100"/>
   </animation>
  </tile>
  <tile id="109">
   <animation>
    <frame tileid="109" duration="100"/>
    <frame tileid="115" duration="100"/>
    <frame tileid="121" duration="100"/>
    <frame tileid="127" duration="100"/>
    <frame tileid="133" duration="100"/>
    <frame tileid="139" duration="100"/>
    <frame tileid="361" duration="100"/>
    <frame tileid="367" duration="100"/>
    <frame tileid="373" duration="100"/>
    <frame tileid="379" duration="100"/>
    <frame tileid="385" duration="100"/>
    <frame tileid="391" duration="100"/>
   </animation>
  </tile>
  <tile id="110">
   <animation>
    <frame tileid="110" duration="100"/>
    <frame tileid="116" duration="100"/>
    <frame tileid="122" duration="100"/>
    <frame tileid="128" duration="100"/>
    <frame tileid="134" duration="100"/>
    <frame tileid="140" duration="100"/>
    <frame tileid="362" duration="100"/>
    <frame tileid="368" duration="100"/>
    <frame tileid="374" duration="100"/>
    <frame tileid="380" duration="100"/>
    <frame tileid="386" duration="100"/>
    <frame tileid="392" duration="100"/>
   </animation>
  </tile>
  <tile id="111">
   <animation>
    <frame tileid="111" duration="100"/>
    <frame tileid="117" duration="100"/>
    <frame tileid="123" duration="100"/>
    <frame tileid="129" duration="100"/>
    <frame tileid="135" duration="100"/>
    <frame tileid="141" duration="100"/>
    <frame tileid="363" duration="100"/>
    <frame tileid="369" duration="100"/>
    <frame tileid="375" duration="100"/>
    <frame tileid="381" duration="100"/>
    <frame tileid="387" duration="100"/>
    <frame tileid="393" duration="100"/>
   </animation>
  </tile>
  <tile id="112">
   <animation>
    <frame tileid="112" duration="100"/>
    <frame tileid="118" duration="100"/>
    <frame tileid="124" duration="100"/>
    <frame tileid="130" duration="100"/>
    <frame tileid="136" duration="100"/>
    <frame tileid="142" duration="100"/>
    <frame tileid="364" duration="100"/>
    <frame tileid="370" duration="100"/>
    <frame tileid="376" duration="100"/>
    <frame tileid="382" duration="100"/>
    <frame tileid="388" duration="100"/>
    <frame tileid="394" duration="100"/>
   </animation>
  </tile>
  <tile id="113">
   <animation>
    <frame tileid="113" duration="100"/>
    <frame tileid="119" duration="100"/>
    <frame tileid="125" duration="100"/>
    <frame tileid="131" duration="100"/>
    <frame tileid="137" duration="100"/>
    <frame tileid="143" duration="100"/>
    <frame tileid="365" duration="100"/>
    <frame tileid="371" duration="100"/>
    <frame tileid="377" duration="100"/>
    <frame tileid="383" duration="100"/>
    <frame tileid="389" duration="100"/>
    <frame tileid="395" duration="100"/>
   </animation>
  </tile>
  <tile id="144">
   <animation>
    <frame tileid="144" duration="100"/>
    <frame tileid="150" duration="100"/>
    <frame tileid="156" duration="100"/>
    <frame tileid="162" duration="100"/>
    <frame tileid="168" duration="100"/>
    <frame tileid="174" duration="100"/>
    <frame tileid="396" duration="100"/>
    <frame tileid="402" duration="100"/>
    <frame tileid="408" duration="100"/>
    <frame tileid="414" duration="100"/>
    <frame tileid="420" duration="100"/>
    <frame tileid="426" duration="100"/>
   </animation>
  </tile>
  <tile id="145">
   <animation>
    <frame tileid="145" duration="100"/>
    <frame tileid="151" duration="100"/>
    <frame tileid="157" duration="100"/>
    <frame tileid="163" duration="100"/>
    <frame tileid="169" duration="100"/>
    <frame tileid="175" duration="100"/>
    <frame tileid="397" duration="100"/>
    <frame tileid="403" duration="100"/>
    <frame tileid="409" duration="100"/>
    <frame tileid="415" duration="100"/>
    <frame tileid="421" duration="100"/>
    <frame tileid="427" duration="100"/>
   </animation>
  </tile>
  <tile id="146">
   <animation>
    <frame tileid="146" duration="100"/>
    <frame tileid="152" duration="100"/>
    <frame tileid="158" duration="100"/>
    <frame tileid="164" duration="100"/>
    <frame tileid="170" duration="100"/>
    <frame tileid="176" duration="100"/>
    <frame tileid="398" duration="100"/>
    <frame tileid="404" duration="100"/>
    <frame tileid="410" duration="100"/>
    <frame tileid="416" duration="100"/>
    <frame tileid="422" duration="100"/>
    <frame tileid="428" duration="100"/>
   </animation>
  </tile>
  <tile id="147">
   <animation>
    <frame tileid="147" duration="100"/>
    <frame tileid="153" duration="100"/>
    <frame tileid="159" duration="100"/>
    <frame tileid="165" duration="100"/>
    <frame tileid="171" duration="100"/>
    <frame tileid="177" duration="100"/>
    <frame tileid="399" duration="100"/>
    <frame tileid="405" duration="100"/>
    <frame tileid="411" duration="100"/>
    <frame tileid="417" duration="100"/>
    <frame tileid="423" duration="100"/>
    <frame tileid="429" duration="100"/>
   </animation>
  </tile>
  <tile id="148">
   <animation>
    <frame tileid="148" duration="100"/>
    <frame tileid="154" duration="100"/>
    <frame tileid="160" duration="100"/>
    <frame tileid="166" duration="100"/>
    <frame tileid="172" duration="100"/>
    <frame tileid="178" duration="100"/>
    <frame tileid="400" duration="100"/>
    <frame tileid="406" duration="100"/>
    <frame tileid="412" duration="100"/>
    <frame tileid="418" duration="100"/>
    <frame tileid="424" duration="100"/>
    <frame tileid="430" duration="100"/>
   </animation>
  </tile>
  <tile id="149">
   <animation>
    <frame tileid="149" duration="100"/>
    <frame tileid="155" duration="100"/>
    <frame tileid="161" duration="100"/>
    <frame tileid="167" duration="100"/>
    <frame tileid="173" duration="100"/>
    <frame tileid="179" duration="100"/>
    <frame tileid="401" duration="100"/>
    <frame tileid="407" duration="100"/>
    <frame tileid="413" duration="100"/>
    <frame tileid="419" duration="100"/>
    <frame tileid="425" duration="100"/>
    <frame tileid="431" duration="100"/>
   </animation>
  </tile>
  <tile id="180">
   <animation>
    <frame tileid="180" duration="100"/>
    <frame tileid="186" duration="100"/>
    <frame tileid="192" duration="100"/>
    <frame tileid="198" duration="100"/>
    <frame tileid="204" duration="100"/>
    <frame tileid="210" duration="100"/>
    <frame tileid="432" duration="100"/>
    <frame tileid="438" duration="100"/>
    <frame tileid="444" duration="100"/>
    <frame tileid="450" duration="100"/>
    <frame tileid="456" duration="100"/>
    <frame tileid="462" duration="100"/>
   </animation>
  </tile>
  <tile id="181">
   <animation>
    <frame tileid="181" duration="100"/>
    <frame tileid="187" duration="100"/>
    <frame tileid="193" duration="100"/>
    <frame tileid="199" duration="100"/>
    <frame tileid="205" duration="100"/>
    <frame tileid="211" duration="100"/>
    <frame tileid="433" duration="100"/>
    <frame tileid="439" duration="100"/>
    <frame tileid="445" duration="100"/>
    <frame tileid="451" duration="100"/>
    <frame tileid="457" duration="100"/>
    <frame tileid="463" duration="100"/>
   </animation>
  </tile>
  <tile id="182">
   <animation>
    <frame tileid="182" duration="100"/>
    <frame tileid="188" duration="100"/>
    <frame tileid="194" duration="100"/>
    <frame tileid="200" duration="100"/>
    <frame tileid="206" duration="100"/>
    <frame tileid="212" duration="100"/>
    <frame tileid="434" duration="100"/>
    <frame tileid="440" duration="100"/>
    <frame tileid="446" duration="100"/>
    <frame tileid="452" duration="100"/>
    <frame tileid="458" duration="100"/>
    <frame tileid="464" duration="100"/>
   </animation>
  </tile>
  <tile id="183">
   <animation>
    <frame tileid="183" duration="100"/>
    <frame tileid="189" duration="100"/>
    <frame tileid="195" duration="100"/>
    <frame tileid="201" duration="100"/>
    <frame tileid="207" duration="100"/>
    <frame tileid="213" duration="100"/>
    <frame tileid="435" duration="100"/>
    <frame tileid="441" duration="100"/>
    <frame tileid="447" duration="100"/>
    <frame tileid="453" duration="100"/>
    <frame tileid="459" duration="100"/>
    <frame tileid="465" duration="100"/>
   </animation>
  </tile>
  <tile id="184">
   <animation>
    <frame tileid="184" duration="100"/>
    <frame tileid="190" duration="100"/>
    <frame tileid="196" duration="100"/>
    <frame tileid="202" duration="100"/>
    <frame tileid="208" duration="100"/>
    <frame tileid="214" duration="100"/>
    <frame tileid="436" duration="100"/>
    <frame tileid="442" duration="100"/>
    <frame tileid="448" duration="100"/>
    <frame tileid="454" duration="100"/>
    <frame tileid="460" duration="100"/>
    <frame tileid="466" duration="100"/>
   </animation>
  </tile>
  <tile id="185">
   <animation>
    <frame tileid="185" duration="100"/>
    <frame tileid="191" duration="100"/>
    <frame tileid="197" duration="100"/>
    <frame tileid="203" duration="100"/>
    <frame tileid="209" duration="100"/>
    <frame tileid="215" duration="100"/>
    <frame tileid="437" duration="100"/>
    <frame tileid="443" duration="100"/>
    <frame tileid="449" duration="100"/>
    <frame tileid="455" duration="100"/>
    <frame tileid="461" duration="100"/>
    <frame tileid="467" duration="100"/>
   </animation>
  </tile>
  <tile id="216">
   <animation>
    <frame tileid="216" duration="100"/>
    <frame tileid="222" duration="100"/>
    <frame tileid="228" duration="100"/>
    <frame tileid="234" duration="100"/>
    <frame tileid="240" duration="100"/>
    <frame tileid="246" duration="100"/>
    <frame tileid="468" duration="100"/>
    <frame tileid="474" duration="100"/>
    <frame tileid="480" duration="100"/>
    <frame tileid="486" duration="100"/>
    <frame tileid="492" duration="100"/>
    <frame tileid="498" duration="100"/>
   </animation>
  </tile>
  <tile id="217">
   <animation>
    <frame tileid="217" duration="100"/>
    <frame tileid="223" duration="100"/>
    <frame tileid="229" duration="100"/>
    <frame tileid="235" duration="100"/>
    <frame tileid="241" duration="100"/>
    <frame tileid="247" duration="100"/>
    <frame tileid="469" duration="100"/>
    <frame tileid="475" duration="100"/>
    <frame tileid="481" duration="100"/>
    <frame tileid="487" duration="100"/>
    <frame tileid="493" duration="100"/>
    <frame tileid="499" duration="100"/>
   </animation>
  </tile>
  <tile id="218">
   <animation>
    <frame tileid="218" duration="100"/>
    <frame tileid="224" duration="100"/>
    <frame tileid="230" duration="100"/>
    <frame tileid="236" duration="100"/>
    <frame tileid="242" duration="100"/>
    <frame tileid="248" duration="100"/>
    <frame tileid="470" duration="100"/>
    <frame tileid="476" duration="100"/>
    <frame tileid="482" duration="100"/>
    <frame tileid="488" duration="100"/>
    <frame tileid="494" duration="100"/>
    <frame tileid="500" duration="100"/>
   </animation>
  </tile>
  <tile id="219">
   <animation>
    <frame tileid="219" duration="100"/>
    <frame tileid="225" duration="100"/>
    <frame tileid="231" duration="100"/>
    <frame tileid="237" duration="100"/>
    <frame tileid="243" duration="100"/>
    <frame tileid="249" duration="100"/>
    <frame tileid="471" duration="100"/>
    <frame tileid="477" duration="100"/>
    <frame tileid="483" duration="100"/>
    <frame tileid="489" duration="100"/>
    <frame tileid="495" duration="100"/>
    <frame tileid="501" duration="100"/>
   </animation>
  </tile>
  <tile id="220">
   <animation>
    <frame tileid="220" duration="100"/>
    <frame tileid="226" duration="100"/>
    <frame tileid="232" duration="100"/>
    <frame tileid="238" duration="100"/>
    <frame tileid="244" duration="100"/>
    <frame tileid="250" duration="100"/>
    <frame tileid="472" duration="100"/>
    <frame tileid="478" duration="100"/>
    <frame tileid="484" duration="100"/>
    <frame tileid="490" duration="100"/>
    <frame tileid="496" duration="100"/>
    <frame tileid="502" duration="100"/>
   </animation>
  </tile>
  <tile id="221">
   <animation>
    <frame tileid="221" duration="100"/>
    <frame tileid="227" duration="100"/>
    <frame tileid="233" duration="100"/>
    <frame tileid="239" duration="100"/>
    <frame tileid="245" duration="100"/>
    <frame tileid="251" duration="100"/>
    <frame tileid="473" duration="100"/>
    <frame tileid="479" duration="100"/>
    <frame tileid="485" duration="100"/>
    <frame tileid="491" duration="100"/>
    <frame tileid="497" duration="100"/>
    <frame tileid="503" duration="100"/>
   </animation>
  </tile>
 </tileset>
 <tileset firstgid="11370" name="hime_kitchenclutter" tilewidth="16" tileheight="16" tilecount="210" columns="15">
  <image source="hime_kitchenclutter.png" width="240" height="224"/>
 </tileset>
 <layer id="1" name="Back" width="48" height="24">
  <properties>
   <property name="NPCWarp" value="19 19 EastScarp_ArtificerHouse 24 49 24 48 EastScarp_ArtificerHouse 19 20"/>
   <property name="Warp" value="10 20 EastScarp_Village 94 94"/>
  </properties>
  <data encoding="csv">
0,0,0,0,0,0,0,0,0,0,0,0,0,0,0,0,0,0,0,0,0,0,0,0,0,0,0,0,0,0,0,0,0,0,0,2656,0,0,0,0,0,0,0,0,0,0,0,0,
0,0,0,0,0,0,0,0,0,0,0,0,0,0,0,0,0,0,0,0,0,0,0,0,0,0,0,0,0,0,0,0,2784,0,0,2656,0,2147486431,0,0,0,0,0,0,2783,2783,0,0,
0,0,0,0,0,0,0,0,0,0,0,0,0,0,0,0,0,0,0,0,2782,2783,2783,2783,2783,2783,2783,2783,2783,2783,2783,2783,2784,0,0,2656,2783,2147486432,2783,2783,2783,2783,2783,2783,2783,2784,0,0,
0,0,0,0,0,0,0,0,0,0,0,0,0,0,0,0,0,0,0,0,2782,2783,2783,2783,2783,2783,2783,2783,2783,2783,2783,2783,2784,0,0,2656,2783,2147486432,2783,2783,2783,2783,2783,2783,2783,2784,0,0,
0,0,0,0,0,0,0,0,0,0,0,0,0,0,0,0,0,0,0,0,2782,2783,2783,2783,2783,2783,2783,2783,2783,2783,2783,2783,2784,0,0,2656,0,2147486432,0,0,0,0,0,0,0,2784,0,0,
0,0,0,0,0,2782,2783,2783,2783,2783,2783,2783,2783,2783,2783,2783,2783,2784,0,0,2786,2787,2788,2787,2788,2787,2788,2787,2788,2787,2788,2787,2804,0,0,2656,2806,2786,2787,2788,2787,2788,2787,2788,2787,2788,2787,2788,
0,0,0,0,0,2782,2783,2783,2783,2783,2783,2783,2783,2783,2783,2783,2783,2784,0,0,2805,2805,2806,2805,2806,2805,2806,2805,2806,2805,2806,2805,2806,2783,0,2783,2806,2805,2805,2806,2805,2806,2805,2806,2805,2806,2805,2806,
0,0,0,0,0,2782,0,0,0,0,0,0,0,0,0,0,0,2784,0,0,2823,2823,2824,2823,2824,2823,2824,2823,2824,2823,2824,2823,2824,2783,2783,2783,2783,2823,2823,2824,2823,2824,2823,2824,2823,2824,2823,2824,
0,0,0,0,0,2786,2787,2788,2787,2788,2787,2788,2787,2788,2787,2788,2787,2804,0,0,2805,2805,2806,2805,2806,2805,2806,2805,2806,2805,2806,2805,2806,2783,2783,2783,2783,2805,2805,2806,2805,2806,2805,2806,2805,2806,2805,2806,
0,0,0,0,0,2805,2805,2806,2805,2806,2805,2806,2805,2806,2805,2806,2805,2806,0,0,2823,2823,2824,2823,2824,2823,2824,2823,2824,2823,2824,2823,2824,2806,2805,2806,2805,2823,2823,2824,2823,2824,2823,2824,2823,2824,2823,2824,
0,0,0,0,0,2823,2823,2824,2823,2824,2823,2824,2823,2824,2823,2824,2823,2824,0,0,2805,2805,2806,2805,2806,2805,2806,2805,2806,2805,2806,2805,2806,2824,2823,2824,2823,2805,2805,2806,2805,2806,2805,2806,2805,2806,2805,2806,
0,0,0,0,0,2805,2805,2806,2805,2806,2805,2806,2805,2806,2805,2806,2805,2806,0,0,2823,2823,2824,2823,2824,2823,2824,2823,2824,2823,2824,2823,2824,2806,2805,2806,2824,2823,0,0,0,0,0,0,0,0,0,0,
0,0,0,0,0,2823,2823,2824,2823,2824,2823,2824,2823,2824,2823,2824,2823,2824,0,0,0,0,0,0,0,0,0,2874,2874,0,0,0,0,0,0,0,2806,2805,2805,0,0,0,0,0,0,0,0,0,
0,0,0,0,0,0,0,0,0,0,2874,0,0,0,0,0,0,0,0,0,0,2782,2783,2783,2783,2783,2783,2783,2874,2783,2783,2783,2784,0,0,2805,2824,2823,2783,2783,2783,2783,2783,0,0,0,0,0,
0,0,2782,2783,2783,2783,2784,0,0,2783,2874,2783,2783,2783,2783,2783,2783,2783,0,0,0,2782,2783,2783,2783,2783,2783,2783,2874,2783,2783,2783,2784,0,0,2782,2783,2805,2783,2783,2783,2783,2784,0,0,0,0,0,
0,0,2782,2783,2783,2783,2784,0,0,2783,2874,2783,2783,2783,2783,2783,2783,2783,0,0,0,2782,0,0,0,0,0,2892,2892,0,0,0,2784,0,0,2782,2783,2805,2783,2783,2783,2783,2784,0,0,0,0,0,
0,0,2782,2783,2783,2783,2784,0,0,0,2874,0,0,0,0,0,0,0,0,0,0,2786,2787,2788,2787,2788,2787,2788,2787,2788,2787,2788,2804,2804,0,2782,2806,1073744611,2823,2805,0,0,2784,0,0,0,0,0,
2788,2787,2786,2787,2788,2787,2804,2783,2783,2787,2788,2787,2788,2787,2788,2787,2788,2787,2783,2783,2783,2805,2805,2806,2805,2806,2805,2806,2805,2806,2805,2806,2805,2806,0,2839,2841,2841,2841,2841,2841,2841,2839,0,0,0,0,0,
2806,2805,2806,2805,2806,2805,2806,2783,2783,2805,2806,2805,2806,2805,2806,2805,2806,2805,2783,2783,2783,2823,2823,2824,2823,2824,2823,2824,2823,2824,2823,2824,2823,2824,0,2858,2859,2859,2859,2859,2859,2859,2860,0,0,0,0,0,
2824,2823,2824,2823,2824,2823,2824,2823,2824,2823,2824,2823,2824,2823,2824,2823,2824,2823,2824,2762,0,2805,2805,2806,2805,2806,2805,2806,2805,2806,2805,2806,2805,2806,0,2858,2859,2859,2859,2859,2859,2859,2860,0,0,0,0,0,
2806,2805,2806,2805,2806,2805,2806,2787,2788,2805,2806,2805,2806,2805,2806,2805,2806,2805,2787,2788,2787,2823,2823,2824,2823,2824,2823,2824,2823,2824,2823,2824,2823,2824,0,2858,2859,2859,2859,2859,2859,2859,2860,0,0,0,0,0,
2824,2823,2824,2823,2824,2823,2824,2805,2806,2823,2824,2823,2824,2823,2824,2823,2824,2823,2805,2806,2805,2806,2805,2806,2805,2806,2805,2806,2805,2806,2805,2806,2805,0,0,2858,2859,2859,2859,2859,2859,2859,2860,0,0,0,0,0,
2806,2805,2806,2805,2806,2805,2806,2805,2806,2805,2806,2805,2806,2805,2806,2805,2806,2805,2806,2806,0,2824,2823,2824,2823,2824,2823,2824,2823,2824,2823,2824,2823,0,0,2839,2859,2859,2859,2859,2859,2859,2839,0,0,0,0,0,
2824,2823,2824,2823,2824,2823,2824,2823,2824,2823,2824,2823,2824,2823,2824,2823,2824,2823,2824,2806,0,0,0,0,0,0,0,0,0,0,0,0,0,0,0,0,0,0,0,0,0,0,0,0,0,0,0,0
</data>
 </layer>
 <layer id="20" name="Back1" width="48" height="24">
  <data encoding="csv">
0,0,0,0,0,0,0,0,0,0,0,0,0,0,0,0,0,0,0,0,0,0,0,0,0,0,0,0,0,0,0,0,0,0,0,0,0,0,0,0,0,0,0,0,0,0,0,0,
0,0,0,0,0,0,0,0,0,0,0,0,0,0,0,0,0,0,0,0,0,0,0,0,0,0,0,0,0,0,0,0,0,0,0,0,0,0,0,0,0,0,0,0,0,0,0,0,
0,0,0,0,0,0,0,0,0,0,0,0,0,0,0,0,0,0,0,0,0,0,0,0,0,0,0,0,0,0,0,0,0,0,0,0,0,0,0,0,0,0,0,0,0,0,0,0,
0,0,0,0,0,0,0,0,0,0,0,0,0,0,0,0,0,0,0,0,0,0,0,0,0,0,0,0,0,0,0,0,0,0,0,0,0,0,0,0,0,0,0,0,0,0,0,0,
0,0,0,0,0,0,0,0,0,0,0,0,0,0,0,0,0,0,0,0,0,0,0,0,0,0,0,0,0,0,0,0,0,0,0,0,0,0,0,0,0,0,0,0,0,0,0,0,
0,0,0,0,0,0,0,0,0,0,0,0,0,0,0,0,0,0,0,0,0,0,0,0,0,0,0,0,0,0,0,0,0,0,0,0,0,0,0,0,0,0,0,0,0,0,0,0,
0,0,0,0,0,0,0,0,0,0,0,0,0,0,0,0,0,0,0,0,3105,3106,3106,3106,3106,3106,3106,3106,3108,0,0,0,0,0,0,0,0,0,0,0,0,0,0,0,0,0,0,0,
0,0,0,0,0,0,0,0,0,0,0,0,0,0,0,0,0,0,0,0,3141,3160,3160,3160,3160,3160,3160,3160,3144,0,0,0,0,0,0,0,0,0,0,0,0,0,0,0,0,0,0,0,
0,0,0,0,0,0,0,0,0,0,0,0,0,2902,2903,2904,0,0,0,0,3141,3160,3160,3160,3160,3160,3160,3160,3144,0,0,0,0,0,0,0,0,0,0,0,0,0,0,0,0,0,0,0,
0,0,0,0,0,0,3203,3204,3205,0,3059,3060,3061,2920,2921,2922,0,0,0,0,3177,3179,3179,3179,3179,3179,3179,3179,3180,0,0,0,0,0,0,0,0,0,0,0,0,0,0,0,0,0,0,0,
0,0,0,0,0,0,3221,3222,3223,0,3077,3078,3079,0,0,0,0,0,0,0,0,0,0,0,0,0,0,0,0,0,0,0,0,0,0,0,0,0,0,0,0,0,0,0,0,0,0,0,
0,0,0,0,0,0,3221,3222,3223,0,0,0,0,0,0,0,0,0,0,0,0,0,0,0,0,0,0,0,0,0,0,0,0,0,0,0,0,0,0,0,0,0,0,0,0,0,0,0,
0,0,0,0,0,0,3239,3240,3241,0,0,0,0,0,0,0,0,0,0,0,0,0,0,0,0,0,0,0,0,0,0,0,0,0,0,0,0,0,0,0,0,0,0,0,0,0,0,0,
0,0,0,3221227328,3221227327,3221227326,0,0,0,0,0,0,0,0,0,0,0,0,0,0,0,0,0,0,0,0,0,0,0,0,0,0,0,0,0,0,0,0,0,0,0,0,0,0,0,0,0,0,
0,0,0,4072,4073,4074,0,0,0,0,0,0,0,0,0,0,0,0,0,0,0,0,0,0,0,0,0,0,0,0,0,0,0,0,0,0,0,0,0,0,0,0,0,0,0,0,0,0,
0,0,0,4090,4091,4092,0,0,0,0,0,0,0,0,0,0,0,0,0,3997,3998,3998,3998,3998,0,0,0,0,0,0,0,0,0,0,0,0,0,0,0,0,0,0,0,0,0,0,0,0,
0,0,0,0,0,0,0,0,0,0,0,0,0,0,0,0,0,0,0,0,0,0,0,0,0,0,0,3203,3204,3205,0,0,0,0,0,0,0,0,0,0,0,0,0,0,0,0,0,0,
0,0,2510,2511,0,0,0,0,0,2979,2981,2983,0,0,0,0,0,0,0,0,0,0,0,2510,2511,0,0,3221,3222,3223,0,0,0,0,0,0,0,0,0,0,0,0,0,0,0,0,0,0,
0,0,2528,2529,0,0,0,0,0,2997,2999,3019,0,0,0,0,0,0,0,0,0,0,0,2528,2529,0,0,3221,3222,3223,0,0,0,0,0,0,0,0,0,0,0,0,0,0,0,0,0,0,
0,0,0,0,0,0,0,0,0,2997,2999,3019,0,0,0,0,0,0,0,0,0,0,0,3997,3998,0,0,3221,3222,3223,0,0,0,0,0,0,0,0,0,0,0,0,0,0,0,0,0,0,
0,0,3434,3435,3435,3436,0,0,0,3033,3034,3037,0,0,0,0,0,0,0,0,0,0,3059,3060,3061,3062,0,3239,3240,3241,0,0,0,0,0,0,0,0,0,0,0,0,0,0,0,0,0,0,
0,0,3452,3453,3453,3454,0,0,0,0,0,0,0,0,0,0,0,0,0,0,0,0,3077,3078,3079,3080,0,0,0,0,2653,2654,0,0,0,0,0,0,0,0,0,0,0,0,0,0,0,0,
0,0,3470,3471,3471,3472,0,0,0,0,0,0,0,0,0,0,0,0,0,0,0,0,0,0,0,0,0,0,0,0,2671,2672,0,0,0,0,0,0,0,0,0,0,0,0,0,0,0,0,
0,0,0,0,0,0,0,0,0,0,0,0,0,0,0,0,0,0,0,0,0,0,0,0,0,0,0,0,0,0,0,0,0,0,0,0,0,0,0,0,0,0,0,0,0,0,0,0
</data>
 </layer>
 <layer id="18" name="Back2" width="48" height="24">
  <data encoding="csv">
0,0,0,0,0,0,0,0,0,0,0,0,0,0,0,0,0,0,0,0,0,0,0,0,0,0,0,0,0,0,0,0,0,0,0,0,0,0,0,0,0,0,0,0,0,0,0,0,
0,0,0,0,0,0,0,0,0,0,0,0,0,0,0,0,0,0,0,0,0,0,0,0,0,0,0,0,0,0,0,0,0,0,0,0,0,0,0,0,0,0,0,0,0,0,0,0,
0,0,0,0,0,0,0,0,0,0,0,0,0,0,0,0,0,0,0,0,0,0,0,0,0,0,0,0,0,0,0,0,0,0,0,0,0,0,0,0,0,0,0,0,0,0,0,0,
0,0,0,0,0,0,0,0,0,0,0,0,0,0,0,0,0,0,0,0,0,0,0,0,0,0,0,0,0,0,0,0,0,0,0,0,0,0,0,0,0,0,0,0,0,0,0,0,
0,0,0,0,0,0,0,0,0,0,0,0,0,0,0,0,0,0,0,0,0,0,0,0,0,0,0,0,0,0,0,0,0,0,0,0,0,0,0,0,0,0,0,0,0,0,0,0,
0,0,0,0,0,0,0,0,0,0,0,0,0,0,0,0,0,0,0,0,0,0,0,0,0,0,0,0,0,0,0,0,0,0,0,0,0,0,0,0,0,0,0,0,0,0,0,0,
0,0,0,0,0,0,0,0,0,0,0,0,0,0,0,0,0,0,0,0,0,0,0,0,0,0,0,0,0,0,0,0,0,0,0,0,0,0,0,0,0,0,0,0,0,0,0,0,
0,0,0,0,0,0,0,0,0,0,0,0,0,0,0,0,0,0,0,0,0,0,0,0,0,0,0,0,0,0,0,0,0,0,0,0,0,0,0,0,0,0,0,0,0,0,0,0,
0,0,0,0,0,0,0,0,0,0,0,0,0,0,0,0,0,0,0,0,0,0,0,0,0,0,0,0,0,0,0,0,0,0,0,0,0,0,0,0,0,0,0,0,0,0,0,0,
0,0,0,0,0,0,0,0,0,0,0,0,0,0,0,0,3062,0,0,0,0,0,5400,5401,5402,5403,5404,0,0,0,0,0,0,0,0,0,0,0,0,0,0,0,0,0,0,0,0,0,
0,0,0,0,0,0,0,0,0,2653,2654,0,0,0,0,0,3080,0,0,0,0,0,0,0,0,0,0,0,0,0,0,0,0,2979,2980,2981,2983,0,0,0,0,0,0,0,0,0,0,0,
0,0,0,0,0,0,0,0,0,2671,2672,0,0,0,0,2510,2511,0,0,0,0,0,0,0,0,0,0,0,0,0,0,0,0,3033,3034,3035,3037,0,0,0,0,0,0,0,0,0,0,0,
0,0,0,0,0,0,0,0,0,0,0,0,0,0,0,2528,2529,0,0,0,0,0,0,0,0,0,0,0,0,0,0,0,0,0,0,0,0,0,0,0,0,0,0,0,0,0,0,0,
0,0,0,0,0,0,0,0,0,0,0,0,0,0,0,0,0,0,0,0,0,0,0,0,0,0,0,0,0,0,0,0,0,0,0,0,0,0,0,0,0,0,0,0,0,0,0,0,
0,0,0,3880,3899,2147487528,3862,0,0,0,0,0,0,0,0,0,0,0,0,0,0,0,0,0,0,0,0,0,0,0,0,0,0,0,0,0,0,0,0,0,0,0,0,0,0,0,0,0,
0,0,0,0,0,0,3880,0,0,0,0,0,0,0,0,0,0,0,0,0,0,0,0,0,0,0,0,0,0,0,0,0,0,0,0,0,0,0,0,0,0,0,0,0,0,0,0,0,
0,0,0,0,0,0,0,0,0,0,0,0,0,0,0,0,0,0,0,0,0,0,0,0,0,0,0,0,0,0,0,0,0,0,0,0,0,0,0,0,0,0,0,0,0,0,0,0,
0,0,0,0,0,0,0,0,0,0,0,0,0,0,0,0,0,0,0,0,0,0,0,0,0,0,0,0,0,0,0,0,0,0,0,0,0,0,0,0,0,0,0,0,0,0,0,0,
0,0,0,0,0,0,0,0,0,0,5073,0,0,0,0,0,0,0,0,0,0,0,0,0,0,0,0,0,0,0,0,0,0,0,0,0,0,0,0,0,0,0,0,0,0,0,0,0,
0,0,0,0,0,0,0,0,0,0,0,0,0,0,0,0,0,0,0,0,0,0,0,0,0,0,0,0,0,0,0,0,0,0,0,0,0,0,0,0,0,0,0,0,0,0,0,0,
0,0,3449,3450,0,0,0,0,0,0,0,0,0,0,0,0,0,0,0,0,0,0,0,0,0,0,0,0,0,0,0,0,0,0,0,0,0,0,0,0,0,0,0,0,0,0,0,0,
0,0,3467,3468,0,0,0,0,0,0,0,0,0,0,0,0,0,0,0,0,0,0,0,0,0,0,0,0,0,0,0,0,0,0,0,0,0,0,0,0,0,0,0,0,0,0,0,0,
0,0,0,0,0,0,0,0,0,0,0,0,0,0,0,0,0,0,0,0,0,0,0,0,0,0,0,0,0,0,0,0,0,0,0,0,0,0,0,0,0,0,0,0,0,0,0,0,
0,0,0,0,0,0,0,0,0,0,0,0,0,0,0,0,0,0,0,0,0,0,0,0,0,0,0,0,0,0,0,0,0,0,0,0,0,0,0,0,0,0,0,0,0,0,0,0
</data>
 </layer>
 <layer id="11" name="Back3" width="48" height="24">
  <data encoding="csv">
0,0,0,0,0,0,0,0,0,0,0,0,0,0,0,0,0,0,0,0,0,0,0,0,0,0,0,0,0,0,0,0,0,0,0,0,0,0,0,0,0,0,0,0,0,0,0,0,
0,0,0,0,0,0,0,0,0,0,0,0,0,0,0,0,0,0,0,0,0,0,0,0,0,0,0,0,0,0,0,0,0,0,0,0,0,0,0,0,0,0,0,0,0,0,0,0,
0,0,0,0,0,0,0,0,0,0,0,0,0,0,0,0,0,0,0,0,0,0,0,0,0,0,0,0,2147486310,2147486309,0,0,0,0,0,0,0,0,1366,1367,0,0,0,0,0,0,0,0,
0,0,0,0,0,0,0,0,0,0,0,0,0,0,0,0,0,0,0,0,0,0,0,0,0,0,0,0,2147486328,2147486327,0,0,0,0,0,0,0,0,1398,1399,0,0,0,0,0,0,0,0,
0,0,0,0,0,0,0,0,0,0,0,0,0,0,0,0,0,0,0,0,0,0,0,0,0,0,0,0,0,0,0,0,0,0,0,0,0,0,0,0,0,0,0,0,0,0,0,0,
0,0,0,0,0,0,0,0,0,0,0,0,0,0,0,0,0,0,0,0,0,0,0,0,0,0,0,0,0,0,0,0,0,0,0,0,0,0,0,0,0,0,0,0,0,0,0,0,
0,0,0,0,0,0,0,0,0,0,0,0,0,0,0,0,0,0,0,0,0,0,5371,0,5371,0,5371,0,0,0,1073744495,1073744496,0,0,0,0,0,0,0,0,3105,3106,3106,3106,3107,3108,0,0,
0,0,0,0,0,0,0,0,0,0,0,0,0,0,0,0,0,0,0,0,0,0,0,0,0,0,0,0,0,0,1073744477,1073744478,0,0,0,0,0,0,0,0,3123,3124,3124,3124,3125,3126,0,0,
0,0,0,0,0,0,0,0,0,0,0,0,0,0,0,0,0,0,0,0,0,0,0,0,0,0,0,0,0,0,0,0,0,0,0,0,0,0,0,0,3123,3124,3124,3125,3125,3126,0,0,
0,0,0,0,0,0,0,0,0,0,0,0,0,0,0,0,0,0,0,0,0,0,0,0,0,0,0,0,0,0,0,0,0,0,0,0,0,0,0,0,3177,3178,3178,3178,3179,3180,0,0,
0,0,0,0,0,0,0,0,0,0,0,0,0,0,0,0,0,0,0,0,0,0,0,0,0,0,0,0,0,0,0,0,0,0,0,0,0,0,0,0,0,0,0,0,0,0,0,0,
0,0,0,0,0,0,0,0,0,0,0,0,0,0,0,0,0,0,0,0,0,0,0,0,0,0,0,0,0,0,0,0,0,0,0,0,0,0,0,0,0,0,0,0,0,0,0,0,
0,0,0,0,0,0,0,0,0,0,0,0,0,0,0,0,0,0,0,0,0,0,0,0,0,0,0,0,0,0,0,0,0,0,0,0,0,0,0,0,0,0,0,0,0,0,0,0,
0,0,0,0,0,0,0,0,0,0,0,0,0,0,0,0,0,0,0,0,0,0,0,0,0,0,0,0,0,0,0,0,0,0,0,0,0,0,0,0,0,0,0,0,0,0,0,0,
0,0,0,0,0,0,0,0,0,0,0,0,0,0,0,0,0,0,0,0,0,0,0,0,0,0,0,0,0,0,0,0,0,0,0,0,0,2739,0,0,0,0,0,0,0,0,0,0,
0,0,0,0,0,0,0,0,0,0,0,0,0,0,0,0,0,0,0,0,0,0,0,0,0,0,0,0,0,0,0,0,0,0,0,0,0,2757,0,0,0,0,0,0,0,0,0,0,
0,0,0,0,0,0,0,0,0,0,0,0,0,0,0,0,0,0,0,0,0,0,0,0,0,0,0,0,0,0,0,0,0,0,0,0,0,2775,0,0,0,0,0,0,0,0,0,0,
0,0,0,0,0,0,0,0,0,0,0,0,0,0,0,0,0,0,0,0,0,0,3960,3961,3962,3963,0,0,0,0,0,0,0,0,0,0,0,0,0,0,0,0,0,0,0,0,0,0,
0,0,0,0,0,0,0,0,0,0,0,0,0,0,0,0,0,0,0,0,0,0,0,0,0,0,0,0,0,0,0,0,0,0,0,0,0,0,0,0,0,0,0,0,0,0,0,0,
0,0,0,0,0,0,0,0,0,0,0,0,0,0,0,0,0,0,0,0,0,0,0,0,0,0,0,0,0,0,0,0,0,0,0,0,0,0,0,0,0,0,0,0,0,0,0,0,
0,0,0,0,0,0,0,0,0,0,0,0,0,0,0,0,0,0,0,0,0,0,0,0,0,0,0,0,0,0,0,0,0,0,0,0,0,0,0,0,0,0,0,0,0,0,0,0,
0,0,0,0,0,0,0,0,0,0,0,0,0,0,0,0,0,0,0,0,0,0,0,0,0,0,0,0,0,0,0,0,0,0,0,0,0,0,0,0,0,0,0,0,0,0,0,0,
0,0,0,0,0,0,0,0,0,0,0,0,0,0,0,0,0,0,0,0,0,0,0,0,0,0,0,0,0,0,0,0,0,0,0,0,0,0,0,0,0,0,0,0,0,0,0,0,
0,0,0,0,0,0,0,0,0,0,0,0,0,0,0,0,0,0,0,0,0,0,0,0,0,0,0,0,0,0,0,0,0,0,0,0,0,0,0,0,0,0,0,0,0,0,0,0
</data>
 </layer>
 <layer id="2" name="Buildings" width="48" height="24">
  <data encoding="csv">
2213,2213,2213,2213,2213,2213,2213,2213,2213,2213,2213,2213,2213,2213,2213,2213,2213,2213,2213,2213,2213,2213,2213,2213,2213,2213,2213,2213,2213,2213,2213,2213,2213,2213,2656,2656,2656,2656,2656,2656,2656,2656,2656,2656,2656,2656,2656,2656,
2213,2213,2213,2213,2213,2213,2213,2213,2213,2213,2213,2213,2213,2213,2213,2213,2213,2213,2213,2213,0,0,0,0,0,0,0,0,0,0,0,0,0,2213,2656,2656,2656,2147486307,2658,2658,2658,2658,2658,2658,2147486306,2659,2656,2656,
2213,2213,2213,2213,2213,2213,2213,2213,2213,2213,2213,2213,2213,2213,2213,2213,2213,2213,2213,2213,0,0,0,0,0,0,0,0,0,0,0,0,0,2656,2656,2656,2147486326,2147486325,0,0,0,0,0,0,0,2677,2678,2656,
2656,2213,2213,2213,0,0,0,2213,2213,2213,2213,2213,2213,2213,2213,2213,2213,0,0,6761,2743,2744,2744,2744,2744,2744,2744,2744,2744,2744,2744,2744,2147486391,2656,2656,2656,2147486344,2147486393,2744,2744,2744,2744,2744,2744,2744,2745,2696,2656,
2656,2213,2213,2213,2213,0,0,0,0,0,0,0,0,0,0,0,0,0,0,6761,2761,2762,2762,2762,2762,2762,2762,2762,2762,2762,2762,2762,2147486409,2656,2656,2656,2147486344,2147486411,2762,2762,2762,2762,2762,2762,2762,2763,2696,2656,
2656,2213,2213,2213,2213,0,0,0,0,0,0,0,0,0,0,0,0,0,2213,6761,2779,0,0,0,0,0,0,0,0,0,5276,5277,2147486427,2656,2656,2656,2147486344,2147486429,4803,618,2184,0,3219,3220,4995,2781,2696,2656,
2656,2213,2978,2213,2213,2743,2744,2744,2744,2744,2744,2744,2744,2744,2744,2744,2744,2745,2213,6761,0,5345,5346,5347,5348,5349,5350,5351,0,0,0,2147486688,2147486687,2656,2658,2658,2766,0,0,0,0,0,0,0,5014,5015,2696,2656,
2656,2213,2213,2213,2213,2761,2762,2762,2762,2762,2762,2762,2762,2762,2762,2762,2762,2763,2213,6761,5370,5363,5364,5365,5366,5367,5368,5369,2147489018,0,0,2147486706,2147486705,2690,0,0,2691,2739,532,0,0,541,542,543,0,0,2696,2656,
2656,2213,2213,2213,2213,2779,2780,2780,2780,2780,2988,2606,2607,2780,2780,2780,2991,2992,2213,6761,5406,5381,5382,5383,5384,5385,5386,5387,2147489054,0,0,5313,5314,2708,2744,2744,2709,2757,2696,2692,0,573,574,575,1066,0,2696,2656,
2656,2213,2213,2213,2213,2993,2994,0,3318,2780,0,0,0,0,0,0,2849,2850,2213,6761,0,5399,5407,0,5407,0,5407,5405,0,0,0,5331,5332,2726,2762,2762,2727,2775,2696,2692,0,0,0,0,0,8770,2696,2656,
2656,2213,2213,2213,2213,3039,3040,0,0,0,0,0,0,2938,2939,2940,2867,2868,2213,6761,0,0,0,0,0,0,0,0,0,0,0,0,0,0,0,0,0,0,2696,0,3288,3289,3290,2147485832,8768,8769,0,2656,
2656,2213,2213,2213,2213,3057,3058,0,0,0,0,0,0,2887,2888,2889,0,0,2213,6761,5390,5391,5392,5393,5394,5426,5427,5428,0,0,0,0,0,0,0,0,0,0,2696,2656,2656,2656,2656,2656,2656,2656,2656,2656,
2656,2213,2213,2213,2213,2813,2814,0,0,0,0,0,0,0,0,0,0,0,2213,6761,6761,6761,6761,6761,6761,6761,6761,6761,0,6761,6761,6761,6761,6761,6761,6761,2147486344,2184,2696,2656,2656,2656,2656,2656,2656,2656,2656,2656,
2656,2213,2213,2213,2213,2213,2213,2213,2213,2213,0,2213,2213,2213,2213,2213,2213,2213,2213,0,0,0,0,0,0,0,0,2691,0,2690,4554,4555,4556,0,2656,2657,2766,0,2765,2658,2658,2147486306,2659,2656,2656,2656,2656,2656,
2656,2213,0,0,0,0,0,0,0,2691,0,2690,0,0,0,0,0,0,0,0,0,2743,2744,2744,2744,2744,2744,2709,0,2708,4572,4573,4574,0,2674,2675,2691,0,2690,0,0,0,2677,2678,2656,2656,2656,2656,
2656,2213,2743,2744,2744,2744,2745,0,0,2709,0,2708,2744,2744,2744,2744,2744,2744,0,0,0,2761,2762,2762,2762,2762,2762,2727,0,2726,4590,4591,4592,0,2692,2743,2709,0,2708,2744,2744,2744,2745,2696,2656,2656,2656,2656,
2656,2213,2761,2762,2762,2762,2763,0,0,2727,2775,2726,2762,2762,2762,2762,2762,2762,0,0,0,3941,2780,2780,2780,2780,3946,4615,0,4607,4608,4609,4610,0,2692,2761,2727,0,2726,2762,2762,2762,2763,2696,2656,2656,2656,2656,
2656,2213,2779,2846,2847,2812,2781,2690,2691,5038,0,5070,5071,2815,2816,2817,2818,2819,2690,2739,2691,3959,0,0,0,0,3964,4633,0,0,0,0,4628,0,2692,2779,0,0,0,0,0,0,2781,2696,2656,2656,2656,2656,
2656,2213,2539,2538,2865,3432,3433,2708,2709,5056,0,0,0,0,0,0,0,2837,2708,2757,2709,3977,3978,0,0,3981,3982,4651,0,0,4644,4645,4646,0,2692,0,0,0,0,0,0,0,0,2696,2656,2656,2656,2656,
2656,2213,0,0,0,0,0,2726,2727,5074,0,0,0,2851,2852,2853,2854,2855,2726,2775,2727,3995,3996,0,0,3999,4000,0,0,4661,4662,4663,4664,0,2692,0,0,0,0,0,0,0,0,2696,2656,2656,2656,2656,
2656,2213,0,0,0,0,0,0,0,0,0,0,0,0,0,0,0,0,0,0,0,0,0,0,0,0,0,0,0,4679,4680,4681,4682,0,2692,0,0,0,0,0,0,0,0,2696,2656,2656,2656,2656,
2656,2656,0,4801,4802,0,0,0,0,0,0,0,0,0,0,0,0,0,0,0,0,0,0,0,0,0,0,0,0,0,0,0,4700,0,2692,2147486363,0,0,0,0,0,0,0,2696,2656,2656,2656,2656,
2656,2656,0,0,0,0,0,2656,2656,2656,2656,0,2656,2656,2656,2656,2656,2656,2656,2656,2307,0,4647,4648,4649,4650,0,0,0,0,4716,4717,4718,0,0,0,0,0,0,0,0,0,0,0,2656,2656,2656,2656,
2656,2656,2656,2656,2656,2656,2656,2656,2656,2656,2656,2656,2656,2656,2656,2656,2656,2656,2656,2656,2656,2656,2656,2656,2656,2656,2656,2656,2656,2656,2656,2656,2656,2656,2656,2656,2656,2656,2656,2656,2656,2656,2656,2656,2656,2656,2656,2656
</data>
 </layer>
 <layer id="21" name="Buildings1" width="48" height="24">
  <data encoding="csv">
0,0,0,0,0,0,0,0,0,0,0,0,0,0,0,0,0,0,0,0,0,0,0,0,0,0,0,0,0,0,0,0,0,0,0,0,0,0,0,0,0,0,0,0,0,0,0,0,
0,0,0,0,0,0,0,0,0,0,0,0,0,0,0,0,0,0,0,0,0,0,0,0,0,0,0,0,0,0,0,0,0,0,0,0,0,0,0,0,0,0,0,0,0,0,0,0,
0,0,0,0,2656,0,0,0,0,0,0,0,0,0,0,0,0,0,0,2656,0,5255,5183,5184,5185,5186,5187,2147488903,0,0,5222,5223,0,0,0,0,0,0,0,0,0,0,0,0,1001,0,0,0,
0,0,0,0,2656,2656,2656,2656,2656,2656,2656,2656,2656,2656,2656,2656,2656,2656,2656,2656,3041,5273,5201,5202,5203,5204,5205,2147488921,0,0,5240,5241,2147486689,0,0,0,0,1427,4767,0,0,0,0,0,1033,0,0,0,
0,0,0,2656,2656,2656,2656,2656,2656,2656,2656,2656,2656,2656,2656,2656,2656,2656,2656,0,0,5291,5292,0,0,0,2147488940,2147488939,0,0,5258,5259,0,0,0,0,0,0,4785,0,0,1375,0,0,4977,0,0,0,
0,0,0,0,2656,0,2611,2612,2613,2614,2615,2616,0,3900,3901,3902,0,0,2656,0,0,0,0,0,0,0,0,0,0,0,0,0,0,0,0,0,0,0,0,0,0,1407,0,0,0,0,0,0,
0,0,0,0,2656,0,2629,2630,2631,2632,2633,2634,0,3918,3919,3920,0,0,0,0,5352,0,0,0,0,0,0,0,2147489000,0,0,0,0,0,0,0,0,0,0,0,0,0,0,0,0,0,0,0,
0,0,0,0,2656,2957,2958,3281,3282,3283,2970,2588,2589,2884,2885,2886,0,0,0,0,5388,0,0,0,0,0,0,0,2147489036,0,0,0,0,5417,5418,5419,5420,0,0,0,0,2967,2968,0,0,0,0,0,
0,0,0,0,2656,2975,2976,3299,3300,3301,0,0,0,0,0,0,0,0,0,0,0,0,0,0,0,0,0,0,0,0,0,0,0,5435,5436,5437,5438,0,0,0,934,0,0,0,0,0,0,0,
0,0,0,0,2656,0,0,3317,0,3319,0,0,0,0,0,0,0,0,0,0,0,0,0,0,0,0,0,0,0,0,0,0,0,0,0,0,0,0,0,0,0,0,0,0,0,0,0,0,
0,0,0,0,2656,0,0,0,0,0,0,0,0,2869,2870,2871,0,0,0,0,0,0,0,0,0,0,0,0,0,0,0,0,0,0,0,0,0,0,0,0,0,0,0,0,0,0,0,0,
0,0,0,0,2656,0,0,0,0,0,0,0,0,0,0,0,0,0,0,0,0,0,0,0,0,0,0,0,0,0,0,0,0,0,0,0,0,0,0,0,0,0,0,0,0,0,0,0,
0,0,0,0,2656,0,0,0,0,0,0,0,0,0,0,0,0,0,0,2656,2656,0,0,0,0,0,0,0,0,0,0,2656,2656,2656,2656,2656,0,0,0,0,0,0,0,0,0,0,0,0,
0,0,0,0,2656,0,0,2656,0,0,0,0,0,0,0,0,0,0,2656,2656,0,0,0,0,0,0,0,2147486355,0,2707,0,0,0,0,0,0,0,0,0,0,0,0,0,0,0,0,0,0,
0,0,2147487511,0,0,0,0,0,0,0,0,0,0,0,0,0,0,0,0,2656,0,0,0,0,0,0,0,2147486355,0,2707,0,0,0,0,0,0,0,0,0,0,0,0,0,0,0,0,0,0,
0,0,2147487529,0,0,0,0,0,0,5002,0,0,0,2802,0,2803,0,0,0,2656,0,3923,3924,3925,3926,3927,3928,2147486373,0,2725,0,0,0,0,0,0,0,0,0,0,0,0,0,0,0,0,0,0,
0,0,2147487547,2828,2829,2794,0,0,0,5020,0,5052,5053,2797,2798,2799,2800,2801,0,0,0,3941,3942,3943,3944,3945,3946,0,0,0,0,0,0,0,0,0,0,0,0,0,0,0,0,0,0,0,0,0,
0,0,0,0,0,0,0,0,0,0,0,0,0,0,0,0,0,2819,0,0,0,3959,0,0,0,0,3964,0,0,0,0,0,0,0,0,0,0,0,0,0,0,0,0,0,0,0,0,0,
0,0,0,2864,3431,0,0,0,0,0,0,0,0,0,0,0,0,0,0,0,0,0,0,0,0,0,0,0,0,0,4644,4645,0,0,0,0,0,0,0,0,0,0,0,0,0,0,0,0,
0,0,0,0,0,0,0,0,0,0,0,0,0,0,0,0,0,0,0,0,0,0,0,0,0,0,0,0,0,0,4662,4663,0,0,0,0,0,0,0,0,0,0,0,0,0,0,0,0,
0,0,0,0,0,0,0,0,0,0,0,0,0,0,0,0,0,0,0,0,0,0,0,0,0,0,0,0,0,0,0,0,0,0,0,0,0,0,0,0,0,0,0,0,0,0,0,0,
0,0,0,0,0,0,0,0,0,0,0,0,0,0,0,0,0,0,0,0,0,0,0,0,0,0,0,0,0,0,0,0,0,0,0,0,0,0,0,0,0,0,0,0,0,0,0,0,
0,0,0,0,0,0,0,0,0,0,0,0,0,0,0,0,0,0,0,0,0,0,0,0,0,0,0,0,0,0,0,0,0,0,0,0,0,0,0,0,0,0,0,0,0,0,0,0,
0,0,0,0,0,0,0,0,0,0,0,0,0,0,0,0,0,0,0,0,0,0,0,0,0,0,0,0,0,0,0,0,0,0,0,0,0,0,0,0,0,0,0,0,0,0,0,0
</data>
 </layer>
 <layer id="14" name="Buildings2" width="48" height="24">
  <data encoding="csv">
0,0,0,0,0,0,0,0,0,0,0,0,0,0,0,0,0,0,0,0,0,0,0,0,0,0,0,0,0,0,0,0,0,0,0,0,0,0,0,0,0,0,0,0,0,0,0,0,
0,0,0,0,0,0,0,0,0,0,0,0,0,0,0,0,0,0,0,0,0,0,0,0,0,0,0,0,0,0,0,0,0,0,0,0,0,0,0,0,0,0,0,0,0,0,0,0,
0,0,0,0,0,0,0,0,0,0,0,0,0,0,0,0,0,0,0,0,0,0,5256,0,0,0,2147488904,0,0,0,0,0,0,0,0,0,0,0,0,0,0,280,281,0,0,0,0,0,
0,0,0,0,0,0,0,0,0,0,0,0,0,0,0,0,0,0,0,0,0,0,5274,0,0,0,2147488922,0,0,0,0,0,0,0,0,0,0,0,0,0,0,312,313,0,0,0,0,0,
0,0,0,0,0,0,0,0,0,0,0,0,0,0,0,0,0,0,0,0,0,0,0,0,0,0,0,0,0,0,0,0,0,0,0,0,0,0,0,0,2152,0,0,0,0,0,0,0,
0,0,0,0,0,0,0,0,0,0,0,2661,2662,0,0,0,0,0,0,0,0,0,0,0,0,0,0,0,0,0,0,0,0,0,0,0,0,0,0,0,0,0,0,0,0,0,0,0,
0,0,0,0,0,0,0,0,0,0,0,2679,2680,0,0,0,0,0,0,0,0,0,0,0,0,0,0,0,0,0,0,0,0,0,0,0,0,0,0,0,0,0,0,0,0,0,0,0,
0,0,0,0,0,0,0,0,0,0,0,0,0,0,0,0,0,0,0,0,0,0,0,0,0,0,0,0,0,0,0,0,0,0,0,0,0,0,0,0,0,0,0,688,0,0,0,0,
0,0,0,0,0,0,0,0,0,0,0,0,0,0,0,0,0,0,0,0,0,0,0,0,0,0,0,0,0,0,0,0,0,0,0,0,0,0,0,0,0,0,0,0,0,0,0,0,
0,0,0,0,0,0,0,0,0,0,0,0,0,0,0,0,0,0,0,0,0,0,0,0,0,0,0,0,0,0,0,0,0,0,0,0,0,0,0,0,0,0,0,0,0,0,0,0,
0,0,0,0,0,0,0,0,0,0,0,0,0,0,0,0,0,0,0,0,0,0,0,0,0,0,0,0,0,0,0,0,0,0,0,0,0,0,0,0,0,0,0,0,0,0,0,0,
0,0,0,0,0,0,0,0,0,0,0,0,0,0,0,0,0,0,0,0,0,0,0,0,0,0,0,0,0,0,0,0,0,0,0,0,0,0,0,0,0,0,0,0,0,0,0,0,
0,0,0,0,0,0,0,0,0,0,0,0,0,0,0,0,0,0,0,0,0,0,0,0,0,0,0,0,0,0,0,0,0,0,0,0,0,0,0,0,0,0,0,0,0,0,0,0,
0,0,0,0,0,0,0,0,0,0,0,0,0,0,0,0,0,0,0,0,0,0,0,0,0,0,0,0,0,0,0,0,0,0,0,0,0,0,0,0,0,0,0,0,0,0,0,0,
0,0,0,0,0,0,0,0,0,0,0,0,0,0,11374,11375,11436,11405,0,0,0,0,0,0,0,0,0,4579,0,0,0,0,0,0,0,0,0,0,0,0,0,0,0,0,0,0,0,0,
0,0,0,0,0,0,0,0,0,0,0,0,0,0,11389,11390,11451,11420,0,0,0,0,0,0,0,0,0,4597,0,4589,0,0,0,0,0,0,0,0,0,0,0,0,0,0,0,0,0,0,
0,0,0,0,0,0,0,0,0,0,0,0,0,0,11496,11554,11539,11513,0,0,0,0,0,0,0,0,0,0,0,0,0,0,0,0,0,0,0,0,0,0,0,0,0,0,0,0,0,0,
0,0,0,0,0,0,0,0,0,0,0,0,0,0,0,0,0,0,0,0,0,0,0,0,0,0,0,0,0,0,0,0,0,0,0,0,0,0,0,0,0,0,0,0,0,0,0,0,
0,0,0,0,0,0,0,0,0,0,0,0,0,0,0,0,0,0,0,0,0,0,0,0,0,0,0,0,0,0,0,0,0,0,0,0,0,0,0,0,0,0,0,0,0,0,0,0,
0,0,0,0,0,0,0,0,0,0,0,0,0,0,0,0,0,0,0,0,0,0,0,0,0,0,0,0,0,0,0,0,0,0,0,0,0,0,0,0,0,0,0,0,0,0,0,0,
0,0,0,0,0,0,0,0,0,0,0,0,0,0,0,0,0,0,0,0,0,0,0,0,0,0,0,0,0,0,0,0,0,0,0,0,0,0,0,0,0,0,0,0,0,0,0,0,
0,0,0,0,0,0,0,0,0,0,0,0,0,0,0,0,0,0,0,0,0,0,0,0,0,0,0,0,0,0,0,0,0,0,0,0,0,0,0,0,0,0,0,0,0,0,0,0,
0,0,0,0,0,0,0,0,0,0,0,0,0,0,0,0,0,0,0,0,0,0,0,0,0,0,0,0,0,0,0,0,0,0,0,0,0,0,0,0,0,0,0,0,0,0,0,0,
0,0,0,0,0,0,0,0,0,0,0,0,0,0,0,0,0,0,0,0,0,0,0,0,0,0,0,0,0,0,0,0,0,0,0,0,0,0,0,0,0,0,0,0,0,0,0,0
</data>
 </layer>
 <layer id="17" name="Buildings3" width="48" height="24">
  <data encoding="csv">
0,0,0,0,0,0,0,0,0,0,0,0,0,0,0,0,0,0,0,0,0,0,0,0,0,0,0,0,0,0,0,0,0,0,0,0,0,0,0,0,0,0,0,0,0,0,0,0,
0,0,0,0,0,0,0,0,0,0,0,0,0,0,0,0,0,0,0,0,0,0,0,0,0,0,0,0,0,0,0,0,0,0,0,0,0,0,0,0,0,0,0,0,0,0,0,0,
0,0,0,0,0,0,0,0,0,0,0,0,0,0,0,0,0,0,0,0,0,0,0,0,0,0,0,0,0,0,0,0,0,0,0,0,0,0,0,0,0,0,0,0,0,0,0,0,
0,0,0,0,0,0,0,0,0,0,0,0,0,0,0,0,0,0,0,0,0,0,0,0,0,0,0,0,0,0,0,0,0,0,0,0,0,0,0,0,0,0,0,0,0,0,0,0,
0,0,0,0,0,0,0,0,0,0,0,0,0,0,0,0,0,0,0,0,0,0,0,0,0,0,0,0,0,0,0,0,0,0,0,0,0,0,0,0,549,0,0,0,0,0,0,0,
0,0,0,0,0,0,0,0,0,0,0,0,0,0,0,0,0,0,0,0,0,0,0,0,0,0,0,0,0,0,0,0,0,0,0,0,0,0,0,0,0,0,0,0,0,0,0,0,
0,0,0,0,0,0,0,0,0,0,0,0,0,0,0,0,0,0,0,0,0,0,0,0,0,0,0,0,0,0,0,0,0,0,0,0,0,0,0,0,0,0,0,0,0,0,0,0,
0,0,0,0,0,0,0,0,0,0,0,0,0,0,0,0,0,0,0,0,0,0,0,0,0,0,0,0,0,0,0,0,0,0,0,0,0,0,0,0,0,0,0,0,0,0,0,0,
0,0,0,0,0,0,0,0,0,0,0,0,0,0,0,0,0,0,0,0,0,0,0,0,0,0,0,0,0,0,0,0,0,0,0,0,0,0,0,0,0,0,0,0,0,0,0,0,
0,0,0,0,0,0,0,0,0,0,0,0,0,0,0,0,0,0,0,0,0,0,0,0,0,0,0,0,0,0,0,0,0,0,0,0,0,0,0,0,0,0,0,0,0,0,0,0,
0,0,0,0,0,0,0,0,0,0,0,0,0,0,0,0,0,0,0,0,0,0,0,0,0,0,0,0,0,0,0,0,0,0,0,0,0,0,0,0,0,0,0,0,0,0,0,0,
0,0,0,0,0,0,0,0,0,0,0,0,0,0,0,0,0,0,0,0,0,0,0,0,0,0,0,0,0,0,0,0,0,0,0,0,0,0,0,0,0,0,0,0,0,0,0,0,
0,0,0,0,0,0,0,0,0,0,0,0,0,0,0,0,0,0,0,0,0,0,0,0,0,0,0,0,0,0,0,0,0,0,0,0,0,0,0,0,0,0,0,0,0,0,0,0,
0,0,0,0,0,0,0,0,0,0,0,0,0,0,0,0,0,0,0,0,0,0,0,0,0,0,0,0,0,0,0,0,0,0,0,0,0,0,0,0,0,0,0,0,0,0,0,0,
0,0,0,0,0,0,0,0,0,0,0,0,0,0,11376,11377,0,0,0,0,0,0,0,0,0,0,0,0,0,0,0,0,0,0,0,0,0,0,0,0,0,0,0,0,0,0,0,0,
0,0,0,0,0,0,0,0,0,0,0,0,0,0,11391,11392,0,0,0,0,0,0,0,0,0,0,0,0,0,0,0,0,0,0,0,0,0,0,0,0,0,0,0,0,0,0,0,0,
0,0,0,0,0,0,0,0,0,0,0,0,0,0,0,0,0,0,0,0,0,0,0,0,0,0,0,0,0,0,0,0,0,0,0,0,0,0,0,0,0,0,0,0,0,0,0,0,
0,0,0,0,0,0,0,0,0,0,0,0,0,0,0,0,0,0,0,0,0,0,0,0,0,0,0,0,0,0,0,0,0,0,0,0,0,0,0,0,0,0,0,0,0,0,0,0,
0,0,0,0,0,0,0,0,0,0,0,0,0,0,0,0,0,0,0,0,0,0,0,0,0,0,0,0,0,0,0,0,0,0,0,0,0,0,0,0,0,0,0,0,0,0,0,0,
0,0,0,0,0,0,0,0,0,0,0,0,0,0,0,0,0,0,0,0,0,0,0,0,0,0,0,0,0,0,0,0,0,0,0,0,0,0,0,0,0,0,0,0,0,0,0,0,
0,0,0,0,0,0,0,0,0,0,0,0,0,0,0,0,0,0,0,0,0,0,0,0,0,0,0,0,0,0,0,0,0,0,0,0,0,0,0,0,0,0,0,0,0,0,0,0,
0,0,0,0,0,0,0,0,0,0,0,0,0,0,0,0,0,0,0,0,0,0,0,0,0,0,0,0,0,0,0,0,0,0,0,0,0,0,0,0,0,0,0,0,0,0,0,0,
0,0,0,0,0,0,0,0,0,0,0,0,0,0,0,0,0,0,0,0,0,0,0,0,0,0,0,0,0,0,0,0,0,0,0,0,0,0,0,0,0,0,0,0,0,0,0,0,
0,0,0,0,0,0,0,0,0,0,0,0,0,0,0,0,0,0,0,0,0,0,0,0,0,0,0,0,0,0,0,0,0,0,0,0,0,0,0,0,0,0,0,0,0,0,0,0
</data>
 </layer>
 <layer id="9" name="Front" width="48" height="24">
  <data encoding="csv">
0,0,0,0,0,0,0,0,0,0,0,0,0,0,0,0,0,0,0,0,0,0,0,0,0,0,0,0,0,0,0,0,0,0,0,0,0,0,0,0,0,0,0,0,0,0,0,0,
0,0,0,0,0,0,0,0,0,0,0,0,0,0,0,0,0,0,0,0,2147486307,2658,2658,2658,2658,2658,2658,2658,2658,2658,2658,2658,2659,2660,0,0,0,0,0,0,0,0,0,0,0,0,0,0,
0,0,0,0,0,0,0,0,0,0,0,0,0,0,0,0,0,0,0,2147486326,2147486325,0,0,0,0,0,0,0,0,0,0,0,2677,2678,0,0,0,0,0,0,378,0,0,0,0,0,0,0,
0,37,37,37,0,0,0,0,0,0,0,0,0,0,0,0,0,0,2660,2692,0,0,0,0,0,0,0,0,0,0,0,0,0,2696,0,0,0,0,0,0,0,0,0,0,0,0,0,0,
0,37,37,37,0,2657,2658,2658,2658,2658,2658,2658,2658,2658,2658,2658,2658,2659,2660,2692,0,0,0,0,0,0,0,0,0,0,0,0,0,2696,0,0,0,0,0,586,0,0,3201,3202,0,0,0,0,
0,37,37,37,2674,2675,0,0,0,0,0,0,0,0,0,0,0,2677,2678,2692,0,0,5353,0,5353,0,5353,5333,0,0,0,2147486670,2147486669,2696,0,0,0,0,0,0,0,0,0,0,4996,4997,0,0,
0,37,37,37,2692,0,0,0,0,3265,2952,0,0,0,0,0,2955,2956,2696,2692,0,0,0,0,0,0,0,0,0,0,0,0,0,2765,0,0,0,0,0,0,0,509,510,511,0,0,0,0,
0,37,37,37,2692,0,0,0,0,0,0,0,0,0,0,0,2973,2974,2696,2692,0,0,0,0,0,0,0,0,0,0,0,5295,5296,0,0,0,0,0,2147486396,2748,902,0,0,0,0,0,0,0,
0,37,37,37,2692,0,0,0,0,0,0,0,0,2905,2906,2907,2831,2832,2696,2692,0,0,5389,0,5389,0,5389,0,0,0,0,0,0,0,0,0,0,0,0,0,0,0,0,0,0,8745,0,0,
0,37,37,37,2692,3021,3022,0,0,0,0,0,0,2920,2921,2922,0,0,2696,2692,0,0,0,0,0,0,0,0,0,0,0,0,0,0,0,0,0,0,0,0,3270,3271,3272,2147485800,8743,8744,0,0,
0,37,37,37,2692,0,0,0,0,0,0,0,0,2938,2939,2940,0,0,2696,2692,5372,5373,5374,5375,5376,5408,5409,5410,0,0,0,0,0,0,0,0,0,0,0,2746,2747,2768,2768,2768,2147486416,2733,2734,0,
0,37,37,37,2692,2795,2796,0,0,0,0,0,0,0,0,0,0,0,2696,2746,2747,2768,2768,2768,2768,2768,2768,2748,0,2147486396,2768,2768,2751,2751,2768,2768,0,2152,0,0,0,0,0,0,0,0,0,0,
0,37,37,37,2746,2747,2768,2768,2768,2748,0,2147486396,2768,2768,2768,2768,2768,2147486395,2147486394,0,0,2657,2658,2658,2658,2658,2658,2766,0,2765,2658,2658,2659,0,0,0,0,0,0,0,0,0,0,0,0,0,0,0,
0,37,2657,2658,2658,2658,2659,0,2697,2766,0,2147486414,2658,2658,2658,2658,2658,2658,2147486345,0,2674,2675,4575,4576,4577,4578,0,0,0,0,0,0,2677,2678,0,0,0,0,0,0,0,0,0,0,0,0,0,0,
0,2674,2675,0,0,0,2677,2678,2692,0,2739,0,0,0,0,0,0,0,2696,0,2692,0,4593,4594,4595,4596,0,0,0,0,0,0,0,2696,0,0,0,0,0,0,0,0,0,0,0,0,0,0,
0,2692,0,0,0,0,0,2696,2692,0,2757,0,0,11549,0,0,0,0,2696,0,2692,0,0,0,0,0,0,0,0,0,0,0,0,2147486340,0,0,0,0,0,0,0,0,0,0,0,0,0,0,
0,2692,0,0,0,0,0,2765,2766,0,0,0,0,0,0,0,0,0,2765,2658,2766,0,0,0,0,0,0,0,0,0,0,0,0,2147486340,0,0,0,0,0,0,0,0,0,0,0,0,0,0,
0,2692,0,0,3413,3414,3415,0,0,0,0,0,0,0,0,0,0,0,0,0,0,0,0,0,0,0,0,0,0,0,4626,4627,0,2147486340,0,0,0,0,0,0,0,0,0,0,0,0,0,0,
0,2692,0,0,0,0,0,0,0,0,0,0,0,2833,2834,2835,2836,0,0,0,0,0,0,0,0,0,0,0,0,4643,0,0,0,2147486340,0,0,0,0,0,0,0,0,0,0,0,0,0,0,
0,2692,0,0,0,0,0,0,0,0,0,0,0,0,0,0,0,0,0,0,0,0,0,0,0,0,0,0,0,0,0,0,0,2147486340,0,0,0,0,0,0,0,0,0,0,0,0,0,0,
0,2692,0,4783,4784,0,0,0,0,0,0,0,0,0,0,0,0,0,0,0,0,0,4611,4612,4613,4614,0,0,0,0,0,0,0,2147486340,0,0,0,0,0,0,0,0,0,0,0,0,0,0,
0,2692,0,0,0,0,0,2749,2768,2768,2748,0,2147486396,2768,2768,2768,2768,2768,2768,2768,2147486397,0,4629,4630,4631,4632,0,0,0,0,4698,4699,0,2147486340,0,0,0,0,0,0,0,0,0,0,0,0,0,0,
0,2746,2747,2768,2768,2768,2147486395,2147486394,0,0,2710,2768,2147486358,0,0,0,0,0,0,0,2746,2747,2147486416,2147486416,2147486416,2768,2768,2768,2768,2768,2768,2768,2147486395,2147486394,2147486382,2147486381,2768,2768,2768,2768,2768,2768,2733,2734,0,0,0,0,
0,0,0,0,0,0,0,0,0,0,0,0,0,0,0,0,0,0,0,0,0,0,0,0,0,0,0,0,0,0,0,0,0,0,0,0,0,0,0,0,0,0,0,0,0,0,0,0
</data>
 </layer>
 <layer id="22" name="Front1" width="48" height="24">
  <data encoding="csv">
0,0,0,0,0,0,0,0,0,0,0,0,0,0,0,0,0,0,0,0,0,0,0,0,0,0,0,0,0,0,0,0,0,0,0,0,0,0,0,0,0,0,0,0,0,0,0,0,
0,0,0,0,0,0,0,0,0,0,0,0,0,0,0,0,0,0,0,0,0,0,0,0,0,0,0,0,0,0,0,0,0,0,0,0,0,0,0,0,0,0,0,0,0,0,0,0,
0,0,0,0,0,0,0,0,0,0,0,0,0,0,0,0,0,0,0,0,0,0,0,0,0,0,0,0,0,0,0,0,0,0,0,0,0,0,0,0,0,0,0,0,0,0,0,0,
0,0,0,0,0,0,0,0,0,0,0,0,0,0,0,0,0,0,0,0,0,0,0,0,0,0,0,0,0,0,0,0,0,0,0,0,0,0,0,0,0,0,0,0,0,0,0,0,
0,0,0,0,0,0,0,0,0,0,0,0,0,0,0,0,0,0,0,0,0,0,0,0,0,0,0,0,0,0,0,0,0,0,0,0,0,0,0,0,0,0,0,745,0,0,0,0,
0,0,0,0,0,2610,0,0,0,0,0,0,0,0,0,0,0,0,0,0,0,0,0,5334,5335,5336,0,0,0,0,0,0,0,0,0,0,0,0,0,0,0,0,0,0,0,0,0,0,
0,0,0,0,0,2628,0,0,0,0,0,0,0,0,0,0,0,0,0,0,0,0,0,0,0,0,0,0,0,0,0,0,0,0,0,0,0,0,500,0,0,2949,2950,0,0,0,0,0,
0,0,0,0,0,0,0,0,0,0,0,0,0,0,0,0,0,0,0,0,0,0,0,0,0,0,0,0,0,0,0,0,0,0,0,0,0,0,0,0,0,0,0,0,0,0,0,0,
0,0,0,0,0,0,0,0,0,0,0,0,0,0,0,0,0,0,0,0,0,0,0,0,0,0,0,0,0,0,0,0,0,0,0,0,0,0,0,0,0,0,0,0,0,0,0,0,
0,0,0,0,0,0,0,0,0,0,0,0,0,0,2872,2873,0,0,0,0,0,0,0,0,0,0,0,0,0,0,0,0,0,0,0,0,0,0,0,0,0,0,0,0,0,0,0,0,
0,0,0,0,0,0,0,0,0,0,0,0,0,2869,2870,2871,0,0,0,0,0,0,0,0,0,0,0,0,0,0,0,0,0,0,0,0,0,0,0,0,0,0,0,0,0,0,0,0,
0,0,0,0,0,0,0,0,0,0,0,0,0,0,0,0,0,0,0,0,0,0,0,0,0,0,0,0,0,0,0,0,0,0,0,0,2748,0,0,0,0,0,0,0,0,0,0,0,
0,0,0,0,0,0,0,0,0,0,0,0,0,0,0,0,0,0,0,0,0,0,0,0,0,0,0,0,0,0,0,0,0,0,0,0,0,0,0,0,0,0,0,0,0,0,0,0,
0,0,0,0,0,0,0,0,0,0,0,0,0,0,0,0,0,0,0,0,0,0,0,0,0,0,0,0,0,0,0,0,0,0,0,0,0,0,0,0,0,0,0,0,0,0,0,0,
0,0,0,0,0,0,0,0,0,0,3214,0,0,0,0,0,0,0,0,0,0,0,0,0,0,0,0,0,0,0,0,0,0,0,0,0,0,0,0,0,0,0,0,0,0,0,0,0,
0,0,0,0,0,0,0,0,0,0,0,0,0,0,0,0,0,0,0,0,0,0,0,0,0,0,0,0,0,0,0,0,0,0,0,0,0,0,0,0,0,0,0,0,0,0,0,0,
0,0,0,0,0,0,0,0,0,0,0,0,0,0,0,0,0,0,0,0,0,0,0,0,0,0,0,0,0,0,0,0,0,0,0,0,0,0,0,0,0,0,0,0,0,0,0,0,
0,0,0,0,0,0,0,0,0,0,0,0,0,0,0,0,0,0,0,0,0,0,0,0,0,0,0,0,0,0,0,0,0,0,0,0,0,0,0,0,0,0,0,0,0,0,0,0,
0,0,0,0,0,0,0,0,0,0,0,0,0,0,5055,0,11578,2147495227,0,0,0,0,0,0,0,0,0,0,0,0,0,0,0,0,0,0,0,0,0,0,0,0,0,0,0,0,0,0,
0,0,0,0,0,0,0,0,0,0,0,0,0,0,0,0,0,0,0,0,0,0,0,0,0,0,0,0,0,0,0,0,0,0,0,0,0,0,0,0,0,0,0,0,0,0,0,0,
0,0,0,0,0,0,0,0,0,0,0,0,0,0,0,0,0,0,0,0,0,0,0,0,0,0,0,0,0,0,0,0,0,0,0,0,0,0,0,0,0,0,0,0,0,0,0,0,
0,0,0,0,0,0,0,0,0,0,0,0,0,0,0,0,0,0,0,0,0,0,0,0,0,0,0,0,0,0,0,0,0,0,0,0,0,0,0,0,0,0,0,0,0,0,0,0,
0,0,0,0,0,0,0,0,0,0,0,0,0,0,0,0,0,0,0,0,0,0,0,0,0,0,0,0,0,0,0,0,0,0,0,0,0,0,0,0,0,0,0,0,0,0,0,0,
0,0,0,0,0,0,0,0,0,0,0,0,0,0,0,0,0,0,0,0,0,0,0,0,0,0,0,0,0,0,0,0,0,0,0,0,0,0,0,0,0,0,0,0,0,0,0,0
</data>
 </layer>
 <layer id="10" name="AlwaysFront" width="48" height="24">
  <data encoding="csv">
0,0,0,0,0,0,0,0,0,0,0,0,0,0,0,0,0,0,0,0,0,0,0,0,0,0,0,0,0,0,0,0,0,0,0,0,0,0,0,0,0,0,0,0,0,0,0,0,
0,0,0,0,0,0,0,0,0,0,0,0,0,0,0,0,0,0,0,0,0,0,0,0,0,0,0,0,0,0,0,0,0,0,0,0,0,0,0,0,0,0,0,0,0,0,0,0,
0,0,0,0,0,0,0,0,0,0,0,0,0,0,0,0,0,0,0,0,0,0,0,0,0,0,0,0,0,0,2825,2826,0,0,0,0,0,0,0,0,0,0,0,0,0,0,0,0,
0,0,0,0,0,0,0,0,0,0,0,0,0,0,0,0,0,0,0,0,0,0,0,0,0,0,0,0,0,0,2843,2844,0,0,0,0,0,0,0,0,0,0,0,0,0,0,0,0,
0,0,0,0,0,0,0,0,0,0,0,0,0,0,0,0,0,0,0,0,0,0,0,0,0,0,0,0,0,0,0,0,0,0,0,0,0,0,0,0,0,0,0,0,0,0,0,0,
0,0,0,0,0,0,0,0,0,0,0,0,0,0,0,0,0,0,0,0,0,0,0,0,0,0,0,0,0,0,0,0,0,0,0,0,0,0,0,0,0,0,0,0,0,0,0,0,
0,0,0,0,0,0,0,0,0,0,0,0,0,0,0,0,0,0,0,0,0,0,0,0,0,0,0,0,0,0,0,0,0,0,0,0,0,0,0,0,0,0,0,0,0,0,0,0,
0,0,0,0,0,0,0,0,0,0,0,0,0,0,0,0,0,0,0,0,0,0,0,0,0,0,0,0,0,0,0,0,0,0,0,0,0,0,0,0,0,0,0,0,0,0,0,0,
0,0,0,0,0,0,0,0,0,0,0,0,0,0,0,0,0,0,0,0,0,0,0,0,0,0,0,0,0,0,0,0,0,0,0,0,0,0,0,0,0,0,0,0,0,0,0,0,
0,0,0,0,0,0,0,0,0,0,0,0,0,2890,2872,2873,0,0,0,0,0,0,0,0,0,0,0,0,0,0,0,0,0,0,0,0,0,0,0,0,0,0,0,0,0,0,0,0,
0,0,0,0,0,0,0,0,0,0,0,0,0,0,0,0,0,0,0,0,0,0,0,0,0,0,0,0,0,0,0,0,0,0,0,0,0,0,0,0,0,0,0,0,0,0,0,0,
0,0,0,0,0,0,0,0,0,0,0,0,0,0,0,0,0,0,0,0,0,0,0,0,0,0,0,0,0,0,0,0,0,0,0,0,2768,2733,2734,0,0,0,0,0,0,0,0,0,
0,0,0,0,0,0,0,0,0,0,0,0,0,0,0,0,0,0,0,0,0,0,0,0,0,0,0,0,0,0,0,0,0,0,0,0,2656,2656,2656,2656,0,0,0,0,0,0,0,0,
0,0,0,0,0,0,0,0,0,3195,3196,3197,0,0,0,0,0,0,0,0,0,0,0,0,0,0,0,0,0,0,0,0,0,0,0,2656,2656,2656,2656,2656,2656,2656,2656,0,0,0,0,0,
0,0,0,0,0,0,0,0,0,3213,0,3215,0,0,0,0,0,0,0,0,0,0,0,0,0,0,0,0,0,0,0,0,0,0,2656,2656,2656,2656,2656,2656,2656,2656,2656,2656,0,0,0,0,
0,0,0,0,0,0,0,0,0,0,0,0,0,0,0,0,0,0,0,0,0,0,0,0,0,0,0,0,0,0,0,0,0,0,2656,2656,2656,2656,2656,2656,2656,2656,2656,2656,0,0,0,0,
0,0,0,0,0,0,0,0,0,0,0,0,0,0,0,0,0,0,0,0,0,0,0,0,0,0,0,0,0,0,0,0,0,0,2656,2656,2656,2656,2656,2656,2656,2656,2656,2656,0,0,0,0,
0,0,0,0,0,0,0,0,0,0,0,0,0,0,0,0,0,0,0,0,0,0,0,0,0,0,0,0,0,0,0,0,0,0,2656,2656,2656,2656,2656,2656,2656,2656,2656,2656,0,0,0,0,
0,0,0,0,0,0,0,0,0,0,0,0,0,0,0,0,0,0,0,0,0,0,0,0,0,0,0,0,0,0,0,0,0,0,2656,2656,2656,2656,2656,2656,2656,2656,2656,2656,0,0,0,0,
0,0,0,0,0,0,0,0,0,0,0,0,0,0,0,0,0,0,0,0,0,0,0,0,0,0,0,0,0,0,0,0,0,0,2656,2656,2656,2656,2656,2656,2656,2656,2656,2656,0,0,0,0,
0,0,0,0,0,0,0,0,0,0,0,0,0,0,0,0,0,0,0,0,0,0,0,0,0,0,0,0,0,0,0,0,0,0,2656,2656,2656,2656,2656,2656,2656,2656,2656,2656,0,0,0,0,
0,0,0,0,0,0,0,0,0,0,0,0,0,0,0,0,0,0,0,0,0,0,0,0,0,0,0,0,0,0,0,0,0,0,2656,2656,2656,2656,2656,2656,2656,2656,2656,2656,2656,0,0,0,
0,0,0,0,0,0,0,0,0,0,0,0,0,0,0,0,2656,2656,2656,2656,0,0,0,0,0,0,0,0,0,0,0,0,0,0,2656,2656,2656,2656,2656,2656,2656,2656,2656,2656,0,0,0,0,
0,0,0,0,0,0,0,0,0,0,0,0,0,0,0,0,2656,2656,2656,2656,2656,2656,0,0,0,0,0,0,0,0,0,0,0,0,0,0,0,0,0,0,0,0,0,0,0,0,0,0
</data>
 </layer>
 <layer id="23" name="AlwaysFront1" width="48" height="24">
  <data encoding="csv">
0,0,0,0,0,0,0,0,0,0,0,0,0,0,0,0,0,0,0,0,0,0,0,0,0,0,0,0,0,0,0,0,0,0,0,0,0,0,0,0,0,0,0,0,0,0,0,0,
0,0,0,0,0,0,0,0,0,0,0,0,0,0,0,0,0,0,0,0,0,0,0,0,0,0,0,0,0,0,0,0,0,0,0,0,0,0,0,0,0,0,0,0,0,0,0,0,
0,0,0,0,0,0,0,0,0,0,0,0,0,0,0,0,0,0,0,0,0,0,0,0,0,0,0,0,0,0,0,0,0,0,0,0,0,0,0,0,0,0,0,0,0,0,0,0,
0,0,0,0,0,0,0,0,0,0,0,0,0,0,0,0,0,0,0,0,0,0,0,0,0,0,0,0,0,0,0,0,0,0,0,0,0,0,0,0,0,0,0,0,0,0,0,0,
0,0,0,0,0,0,0,0,0,0,0,0,0,0,0,0,0,0,0,0,0,0,0,0,0,0,0,0,0,0,0,0,0,0,0,0,0,0,0,0,0,0,0,0,0,0,0,0,
0,0,0,0,0,0,0,0,0,0,0,0,0,0,0,0,0,0,0,0,0,0,0,0,0,0,0,0,0,0,0,0,0,0,0,0,0,0,0,0,0,0,0,0,0,0,0,0,
0,0,0,0,0,0,0,0,0,0,0,0,0,0,0,0,0,0,0,0,0,0,0,0,0,0,0,0,0,0,0,0,0,0,0,0,0,0,0,0,0,0,0,0,0,0,0,0,
0,0,0,0,0,0,0,0,0,0,0,0,0,0,0,0,0,0,0,0,0,0,0,0,0,0,0,0,0,0,0,0,0,0,0,0,0,0,0,0,0,0,0,0,0,0,0,0,
0,0,0,0,0,0,0,0,0,0,0,0,0,0,2328,2329,0,0,0,0,0,0,0,0,0,0,0,0,0,0,0,0,0,0,0,0,0,0,0,0,0,0,0,0,0,0,0,0,
0,0,0,0,0,0,0,0,0,0,0,0,0,0,2346,2347,0,0,0,0,0,0,0,0,0,0,0,0,0,0,0,0,0,0,0,0,0,0,0,0,0,0,0,0,0,0,0,0,
0,0,0,0,0,0,0,0,0,0,0,0,0,0,0,0,0,0,0,0,0,0,0,0,0,0,0,0,0,0,0,0,0,0,0,0,0,0,0,0,0,0,0,0,0,0,0,0,
0,0,0,0,0,0,0,0,0,0,0,0,0,0,0,0,0,0,0,0,0,0,0,0,0,0,0,0,0,0,0,0,0,0,0,0,0,0,0,0,0,0,0,0,0,0,0,0,
0,0,0,0,0,0,0,0,0,0,0,0,0,0,0,0,0,0,0,0,0,0,0,0,0,0,0,0,0,0,0,0,0,0,0,0,0,0,0,0,0,0,0,0,0,0,0,0,
0,0,0,0,0,0,0,0,0,0,0,0,0,0,0,0,0,0,0,0,0,0,0,0,0,0,0,0,0,0,0,0,0,0,0,0,0,0,0,0,0,0,0,0,0,0,0,0,
0,0,0,0,0,0,0,0,0,0,0,0,0,0,0,0,0,0,0,0,0,0,0,0,0,0,0,0,0,0,0,0,0,0,0,0,0,0,0,0,0,0,0,0,0,0,0,0,
0,0,0,0,0,0,0,0,0,0,0,0,0,0,0,0,0,0,0,0,0,0,0,0,0,0,0,0,0,0,0,0,0,0,0,0,0,0,0,0,0,0,0,0,0,0,0,0,
0,0,0,0,0,0,0,0,0,0,0,0,0,0,0,0,0,0,0,0,0,0,0,0,0,0,0,0,0,0,0,0,0,0,0,0,0,0,0,0,0,0,0,0,0,0,0,0,
0,0,0,0,0,0,0,0,0,0,0,0,0,0,0,0,0,0,0,0,0,0,0,0,0,0,0,0,0,0,0,0,0,0,0,0,0,0,0,0,0,0,0,0,0,0,0,0,
0,0,0,0,0,0,0,0,0,0,0,0,0,0,0,0,0,0,0,0,0,0,0,0,0,0,0,0,0,0,0,0,0,0,0,0,0,0,0,0,0,0,0,0,0,0,0,0,
0,0,0,0,0,0,0,0,0,0,0,0,0,0,0,0,0,0,0,0,0,0,0,0,0,0,0,0,0,0,0,0,0,0,0,0,0,0,0,0,0,0,0,0,0,0,0,0,
0,0,0,0,0,0,0,0,0,0,0,0,0,0,0,0,0,0,0,0,0,0,0,0,0,0,0,0,0,0,0,0,0,0,0,0,0,0,0,0,0,0,0,0,0,0,0,0,
0,0,0,0,0,0,0,0,0,0,0,0,0,0,0,0,0,0,0,0,0,0,0,0,0,0,0,0,0,0,0,0,0,0,0,0,0,0,0,0,0,0,0,0,0,0,0,0,
0,0,0,0,0,0,0,0,0,0,0,0,0,0,0,0,0,0,0,0,0,0,0,0,0,0,0,0,0,0,0,0,0,0,0,0,0,0,0,0,0,0,0,0,0,0,0,0,
0,0,0,0,0,0,0,0,0,0,0,0,0,0,0,0,0,0,0,0,0,0,0,0,0,0,0,0,0,0,0,0,0,0,0,0,0,0,0,0,0,0,0,0,0,0,0,0
</data>
 </layer>
 <layer id="4" name="Paths" width="48" height="24" visible="0">
  <data encoding="csv">
0,0,0,0,0,0,0,0,0,0,0,0,0,0,0,0,0,0,0,0,0,0,0,0,0,0,0,0,0,0,0,0,0,0,0,0,0,0,0,0,0,0,0,0,0,0,0,0,
0,0,0,0,0,0,0,0,0,0,0,0,0,0,0,0,0,0,0,0,0,0,0,0,0,0,0,0,0,0,0,0,0,0,0,0,0,0,0,0,0,0,0,0,0,0,0,0,
0,0,0,0,0,0,0,0,0,0,0,0,0,0,0,0,0,0,0,0,0,0,0,0,0,0,0,0,0,0,0,0,0,0,0,0,0,0,0,0,0,0,0,0,0,0,0,0,
0,0,0,0,0,0,0,0,0,0,0,0,0,0,0,0,0,0,0,0,9,0,9,0,0,9,0,0,9,0,0,9,0,0,0,0,0,9,0,0,0,9,0,0,9,0,0,0,
0,0,0,0,0,9,0,9,0,0,9,0,0,9,0,0,9,0,0,0,9,0,9,0,0,9,0,0,9,0,0,9,0,0,0,0,0,0,0,0,0,0,0,0,0,0,0,0,
0,0,0,0,0,0,0,0,0,0,0,0,0,0,0,0,0,0,0,0,9,0,9,0,0,9,0,0,9,0,0,9,0,0,0,0,0,0,0,0,0,0,0,0,0,0,0,0,
0,0,0,0,0,9,0,9,0,0,9,0,0,9,0,0,9,0,0,0,9,0,9,0,0,9,0,0,9,0,0,9,0,0,0,0,0,9,0,0,0,0,0,0,0,0,0,0,
0,0,0,0,0,0,0,0,0,0,0,0,0,0,0,0,0,0,0,0,9,0,9,0,0,9,0,0,9,0,0,9,0,0,9,0,0,0,0,0,0,0,0,0,0,0,0,0,
0,0,0,0,0,9,0,9,0,0,9,0,0,9,0,0,9,0,0,0,9,0,9,0,0,9,0,0,9,0,0,9,0,0,0,0,0,0,0,0,0,0,0,0,0,0,0,0,
0,0,0,0,0,0,0,0,0,0,0,0,0,0,0,0,0,0,0,0,0,0,0,0,0,0,0,0,0,0,0,0,0,0,0,0,0,0,0,0,0,0,0,0,0,0,0,0,
0,0,0,0,0,9,0,9,0,0,9,0,0,9,0,0,9,0,0,0,9,0,9,0,0,9,0,0,9,0,0,9,0,0,9,0,0,9,0,0,0,0,0,0,0,0,0,0,
0,0,0,0,0,0,0,0,0,0,0,0,0,0,0,0,0,0,0,0,0,0,0,0,0,0,0,0,0,0,0,0,0,0,0,0,0,0,0,0,0,0,0,0,0,0,0,0,
0,0,0,0,0,9,0,9,0,0,9,0,0,9,0,0,9,0,0,0,0,0,9,0,0,9,0,0,9,0,0,9,0,0,0,0,0,0,0,0,0,0,0,0,0,0,0,0,
0,0,0,0,0,0,0,0,0,0,0,0,0,0,0,0,0,0,0,0,0,0,0,0,0,0,0,0,0,0,0,0,0,0,0,0,0,0,0,0,0,0,0,0,0,0,0,0,
0,0,0,9,0,9,0,0,0,0,9,0,0,9,0,0,9,0,9,0,9,0,9,0,0,9,0,0,9,0,0,9,0,0,0,0,0,0,0,0,0,0,0,0,0,0,0,0,
0,0,0,0,0,0,0,0,0,0,0,0,0,0,0,0,0,0,0,0,0,0,0,0,0,0,0,0,0,0,0,0,0,0,0,0,0,0,0,0,0,0,0,0,0,0,0,0,
0,0,0,9,0,9,0,9,0,0,9,0,0,9,0,0,9,0,9,0,9,0,9,0,0,9,0,0,9,0,0,9,0,0,0,0,0,0,0,0,0,0,0,0,0,0,0,0,
0,0,0,0,0,0,0,0,0,0,0,0,0,0,0,0,0,0,0,0,0,0,0,0,0,0,0,0,0,0,0,0,0,0,0,0,0,0,0,0,0,0,0,0,0,0,0,0,
0,0,0,9,0,9,0,9,0,0,9,0,0,9,0,0,9,0,9,0,9,0,9,0,0,9,0,0,9,0,0,9,0,0,0,0,0,0,0,0,0,0,0,0,0,0,0,0,
0,0,0,0,0,0,0,0,0,0,0,0,0,0,0,0,0,0,0,0,0,0,0,0,0,0,0,0,0,0,0,0,0,0,0,0,0,0,0,0,0,0,0,0,0,0,0,0,
0,0,0,9,0,9,0,9,0,0,9,0,0,9,0,0,9,0,9,0,9,0,9,0,0,9,0,0,9,0,0,9,0,0,0,0,0,0,0,0,0,0,0,0,0,0,0,0,
0,0,0,0,0,0,0,0,0,0,0,0,0,0,0,0,0,0,0,0,0,0,0,0,0,0,0,0,0,0,0,0,0,0,0,0,0,0,0,0,0,0,0,0,0,0,0,0,
0,0,0,9,0,9,0,9,0,0,9,0,0,9,0,0,9,0,9,0,9,0,9,0,0,9,0,0,9,0,0,9,0,0,0,0,0,0,0,0,0,0,0,0,0,0,0,0,
0,0,0,0,0,0,0,0,0,0,0,0,0,0,0,0,0,0,0,0,0,0,0,0,0,0,0,0,0,0,0,0,0,0,0,0,0,0,0,0,0,0,0,0,0,0,0,0
</data>
 </layer>
 <objectgroup id="5" name="Back"/>
 <objectgroup id="12" name="Buildings">
  <properties>
   <property name="TreatAsOutdoors" value="T"/>
   <property name="indoorWater" value="T"/>
  </properties>
  <object id="55" name="TileData" x="48" y="336" width="32" height="16">
   <properties>
    <property name="Action" value="Message PepperRexBed"/>
   </properties>
  </object>
  <object id="56" name="TileData" x="32" y="288" width="32" height="16">
   <properties>
    <property name="Action" value="Message QuackQuestion"/>
   </properties>
  </object>
  <object id="57" name="TileData" x="80" y="288" width="32" height="16">
   <properties>
    <property name="Action" value="Message EmeritusToys"/>
   </properties>
  </object>
  <object id="58" name="TileData" x="144" y="288" width="16" height="16">
   <properties>
    <property name="Action" value="Message CiderKeg"/>
   </properties>
  </object>
  <object id="59" name="TileData" x="144" y="272" width="16" height="16">
   <properties>
    <property name="Action" value="Message LiquorCabinet"/>
   </properties>
  </object>
  <object id="60" name="TileData" x="192" y="272" width="16" height="16">
   <properties>
    <property name="Action" value="Message Kegarator"/>
   </properties>
  </object>
  <object id="62" name="TileData" x="208" y="272" width="16" height="16">
   <properties>
    <property name="Action" value="Message ValFridge"/>
   </properties>
  </object>
  <object id="63" name="TileData" x="240" y="272" width="16" height="16">
   <properties>
    <property name="Action" value="Message OldEspresso"/>
   </properties>
  </object>
  <object id="64" name="TileData" x="256" y="272" width="16" height="16">
   <properties>
    <property name="Action" value="Message ValFridge"/>
   </properties>
  </object>
  <object id="65" name="TileData" x="112" y="128" width="48" height="16">
   <properties>
    <property name="Action" value="Message ValDesk"/>
   </properties>
  </object>
  <object id="66" name="TileData" x="160" y="128" width="16" height="16">
   <properties>
    <property name="Action" value="Message ParchmentSkeleton"/>
   </properties>
  </object>
  <object id="67" name="TileData" x="192" y="128" width="16" height="16">
   <properties>
    <property name="Action" value="Message DoctorVal"/>
   </properties>
  </object>
  <object id="68" name="TileData" x="256" y="160" width="32" height="16">
   <properties>
    <property name="Action" value="Message GeoffTheLandshark"/>
   </properties>
  </object>
  <object id="69" name="TileData" x="208" y="176" width="48" height="16">
   <properties>
    <property name="Action" value="Message GhastRadio"/>
   </properties>
  </object>
  <object id="71" name="TileData" x="368" y="352" width="32" height="16">
   <properties>
    <property name="Action" value="Message StygiumSword"/>
   </properties>
  </object>
  <object id="72" name="TileData" x="464" y="304" width="16" height="16">
   <properties>
    <property name="Action" value="Message StygiumSkull"/>
   </properties>
  </object>
  <object id="73" name="TileData" x="432" y="288" width="16" height="16">
   <properties>
    <property name="Action" value="Message StygiumShield"/>
   </properties>
  </object>
  <object id="74" name="TileData" x="464" y="256" width="16" height="16">
   <properties>
    <property name="Action" value="Message StygiumVase"/>
   </properties>
  </object>
  <object id="75" name="TileData" x="432" y="256" width="16" height="16">
   <properties>
    <property name="Action" value="Message StygiumPlant"/>
   </properties>
  </object>
  <object id="76" name="TileData" x="480" y="256" width="32" height="16">
   <properties>
    <property name="Action" value="Message ValBooks1"/>
   </properties>
  </object>
  <object id="77" name="TileData" x="480" y="320" width="32" height="16">
   <properties>
    <property name="Action" value="Message ValBooks2"/>
   </properties>
  </object>
  <object id="78" name="TileData" x="480" y="80" width="16" height="16">
   <properties>
    <property name="Action" value="Message ArtifactShelf"/>
   </properties>
  </object>
  <object id="80" name="TileData" x="368" y="176" width="32" height="16">
   <properties>
    <property name="Action" value="Message DiceChest"/>
   </properties>
  </object>
  <object id="81" name="TileData" x="336" y="176" width="16" height="16">
   <properties>
    <property name="Action" value="Message PonderingOrb"/>
   </properties>
  </object>
  <object id="82" name="TileData" x="352" y="64" width="80" height="16">
   <properties>
    <property name="Action" value="Message GreenLight"/>
   </properties>
  </object>
  <object id="83" name="TileData" x="592" y="144" width="16" height="16">
   <properties>
    <property name="Action" value="Message SenRoom"/>
   </properties>
  </object>
  <object id="85" name="TileData" x="528" y="144" width="64" height="16">
   <properties>
    <property name="Action" value="Message ValToDo"/>
   </properties>
  </object>
  <object id="92" name="TileData" x="592" y="176" width="16" height="16">
   <properties>
    <property name="Action" value="Message CritterRoom"/>
   </properties>
  </object>
  <object id="93" name="TileData" x="336" y="96" width="112" height="48">
   <properties>
    <property name="Action" value="Message TabletopSession"/>
   </properties>
  </object>
  <object id="94" name="TileData" x="336" y="288" width="16" height="16">
   <properties>
    <property name="Spiderbuttons.CMF" value="ItemPedestal"/>
   </properties>
  </object>
  <object id="95" name="TileData" x="352" y="288" width="16" height="16">
   <properties>
    <property name="Spiderbuttons.CMF" value="ItemPedestal"/>
   </properties>
  </object>
  <object id="99" name="TileData" x="400" y="288" width="16" height="16">
   <properties>
    <property name="Spiderbuttons.CMF" value="ItemPedestal"/>
   </properties>
  </object>
  <object id="100" name="TileData" x="416" y="288" width="16" height="16">
   <properties>
    <property name="Spiderbuttons.CMF" value="ItemPedestal"/>
   </properties>
  </object>
  <object id="101" name="TileData" x="416" y="272" width="16" height="16">
   <properties>
    <property name="Spiderbuttons.CMF" value="ItemPedestal"/>
   </properties>
  </object>
  <object id="102" name="TileData" x="400" y="240" width="16" height="16">
   <properties>
    <property name="Spiderbuttons.CMF" value="ItemPedestal"/>
   </properties>
  </object>
  <object id="103" name="TileData" x="336" y="272" width="16" height="16">
   <properties>
    <property name="Spiderbuttons.CMF" value="ItemPedestal"/>
   </properties>
  </object>
  <object id="104" name="TileData" x="416" y="256" width="16" height="16">
   <properties>
    <property name="Spiderbuttons.CMF" value="ItemPedestal"/>
   </properties>
  </object>
  <object id="105" name="TileData" x="352" y="240" width="16" height="16">
   <properties>
    <property name="Spiderbuttons.CMF" value="ItemPedestal"/>
   </properties>
  </object>
  <object id="106" name="TileData" x="336" y="256" width="16" height="16">
   <properties>
    <property name="Spiderbuttons.CMF" value="ItemPedestal"/>
   </properties>
  </object>
  <object id="123" name="TileData" x="160" y="256" width="16" height="16">
   <properties>
    <property name="NPCPassable" value="T"/>
   </properties>
  </object>
 </objectgroup>
 <objectgroup id="7" name="Front"/>
 <objectgroup id="8" name="Paths" visible="0">
  <object id="144" name="TileData" x="291.333" y="335.333" width="16" height="16">
   <properties>
    <property name="NoPath" type="bool" value="true"/>
   </properties>
  </object>
 </objectgroup>
</map>
